!!!!SEGMENT: pl-cz--ii-267--001_koperski-maksymilian--vidi-aquam-in-c.krn
!!!cenid: 18xx:909
!!!COM: Koperski, Maksymilian
!!!COM-rismID:
!!!CDT: 1812-1886
!!!CNT:
!!!OTL: Vidi aquam in C
!!!PDT: 1839
!!!AGN: Sacred
!!!SMS-siglum: PL-CZ
!!!SMS-shelfmark: II-267
!!!SMS-shelfwork: 001 W
!!!SMS-variant:
!!!SMS-altvar:
!!!NIFC-rismSourceID: 300000605
!!!NIFC-islandoraID: pl-cz:33410
!!!URL-pdf-islandora: https://repozytorium.nifc.pl/islandora/object/pl-cz%3A33410/datastream/PDF/view
!!!URL-scan:
!!!ONB-nifc: Vidi aquam No I
!!!AIN: 1 alto 1 bass 1 cello 2 clars 2 clrno 1 organ 1 soprn 1 tenor 1 timpa 1 viola 2 violn
!!!key: C
**kern	**fba	**dynam	**kern	**dynam	**kern	**dynam	**kern	**dynam	**kern	**dynam	**kern	**text	**dynam	**kern	**text	**dynam	**kern	**text	**dynam	**kern	**text	**dynam	**kern	**dynam	**kern	**dynam	**kern	**dynam	**kern	**dynam	**kern	**dynam
*part14	*part14	*part14	*part13	*part13	*part12	*part12	*part11	*part11	*part10	*part10	*part9	*part9	*part9	*part8	*part8	*part8	*part7	*part7	*part7	*part6	*part6	*part6	*part5	*part5	*part4	*part4	*part3	*part3	*part2	*part2	*part1	*part1
*staff14	*	*	*staff13	*	*staff12	*	*staff11	*	*staff10	*	*staff9	*staff9	*	*staff8	*staff8	*	*staff7	*staff7	*	*staff6	*staff6	*	*staff5	*	*staff4	*	*staff3	*	*staff2	*	*staff1	*
*I"Organ	*	*	*I"Violin	*	*I"Altowka.	*	*I"Violino 2do	*	*I"Violino 1m	*	*I"Baſs	*	*	*I"Tenor	*	*	*I"Alt	*	*	*I"Cant	*	*	*I"Tympan in C.G.	*	*I"Clarino 2do in C.	*	*I"Clarino 1mo in C.	*	*I"Clarnet 2do	*	*I"Clarinetto 1mo	*
*I'org	*	*	*I'vlc	*	*I'vla	*	*I'vl II	*	*I'vl I	*	*I'B	*	*	*I'T	*	*	*I'A	*	*	*I'C	*	*	*I'timp	*	*I'clno II	*	*I'clno I	*	*I'cl II	*	*I'cl I	*
*ICklav	*	*	*ICstr	*	*ICstr	*	*ICstr	*	*ICstr	*	*ICvox	*	*	*ICvox	*	*	*ICvox	*	*	*ICvox	*	*	*ICidio	*	*ICbras	*	*ICbras	*	*ICww	*	*ICww	*
*Iorgan	*	*	*Icello	*	*Iviola	*	*Ivioln	*	*Ivioln	*	*Ibass	*	*	*Itenor	*	*	*Ialto	*	*	*Isoprn	*	*	*Itimpa	*	*Iclrno	*	*Iclrno	*	*Iclars	*	*Iclars	*
*clefF4	*	*	*clefF4	*	*clefC3	*	*clefG2	*	*clefG2	*	*clefF4	*	*	*clefC4	*	*	*clefC3	*	*	*clefC1	*	*	*clefF4	*	*clefG2	*	*clefG2	*	*clefG2	*	*clefG2	*
*C:	*	*	*C:	*	*C:	*	*C:	*	*C:	*	*C:	*	*	*C:	*	*	*C:	*	*	*C:	*	*	*C:	*	*C:	*	*C:	*	*C:	*	*C:	*
*k[]	*	*	*k[]	*	*k[]	*	*k[]	*	*k[]	*	*k[]	*	*	*k[]	*	*	*k[]	*	*	*k[]	*	*	*k[]	*	*k[]	*	*k[]	*	*k[]	*	*k[]	*
*M3/4	*	*	*M3/4	*	*M3/4	*	*M3/4	*	*M3/4	*	*M3/4	*	*	*M3/4	*	*	*M3/4	*	*	*M3/4	*	*	*M3/4	*	*M3/4	*	*M3/4	*	*M3/4	*	*M3/4	*
=1	=1	=1	=1	=1	=1	=1	=1	=1	=1	=1	=1	=1	=1	=1	=1	=1	=1	=1	=1	=1	=1	=1	=1	=1	=1	=1	=1	=1	=1	=1	=1	=1
!LO:TX:t=P:all\right:problem	!	!	!	!	!	!	!	!	!	!	!	!	!	!	!	!	!	!	!	!	!	!	!	!	!	!	!	!	!	!	!	!
!LO:N:vis=8	!	!	!	!	!	!	!	!	!	!	!	!	!	!	!	!	!LO:TX:t=P:problem=brak oznaczenia tempa	!	!	!LO:TX:t=P:problem=brak oznaczenia tempa	!	!	!	!	!	!	! 	!	! 	!	! 	!
!LO:TX:a:B:t=Allegro	!	!	!LO:TX:a:B:t=allegro	!	!LO:TX:t=P:problem=brak oznaczenia tempa	!	!LO:TX:a:B:t=allegro	!	!LO:TX:a:B:t=allegro	!	!LO:TX:a:B:t=allegro	!	!	!LO:TX:a:B:t=allegro	!	!	!LO:TX:a:t=1	!	!	!LO:TX:a:t=1	!	!	!LO:TX:a:B:t=allegro	!	!LO:TX:a:B:t=allegro	!	!LO:TX:a:B:t=allegro	!	!LO:TX:t=P:problem=brak oznaczenia tempa	!	!LO:TX:a:B:t=allegro	!
!	!	!	!	!	!	!	!	!	!	!	!	!	!	!	!	!	!	!	!	!	!	!	!	!	!LO:DY:t=for	!	!	!	!	!	!	!
!	!	!	!	!	!	!	!	!	!	!LO:DY:b:t=for	!	!	!	!	!	!	!	!	!	!	!	!	!	!	!	!	!	!	!	!	!	!
!	!	!	!	!	!	!	!	!LO:DY:b	!	!	!	!	!	!	!	!	!	!	!	!	!	!	!	!	!	!	!	!	!	!	!	!
!	!	!	!	!	!	!LO:DY:b	!	!	!	!	!	!	!	!	!	!	!	!	!	!	!	!	!	!	!	!	!	!	!	!	!	!
!	!	!	!	!LO:DY:b	!	!	!	!	!	!	!	!	!	!	!	!	!	!	!	!	!	!	!	!	!	!	!	!	!	!	!	!
!	!	!	!	!	!	!	!	!	!	!	!	!	!	!	!	!	!	!	!	!	!	!	!	!	!	!LO:DY:t=for	!	!	!	!	!	!
!	!	!LO:DY:b:t=for	!	!	!	!	!	!	!	!	!	!	!	!	!	!	!	!	!	!	!	!	!	!LO:DY:b:t=fo	!	!	!	!	!	!	!	!
8.C/L	.	f	8.C/L	f	8.c\L	f	8.g/L 8.cc	f	8.ee\L 8.ccc	f	2.r	.	.	2.r	.	.	2.r	.	.	2.r	.	.	8.C/L	f	8.e/L	f	8.cc\L	f	4ee\	.	4ccc\	f
16C/Jk	.	.	16C/Jk	.	16c\Jk	.	16g/Jk 16cc	.	16ee\Jk 16ccc	.	.	.	.	.	.	.	.	.	.	.	.	.	16C/Jk	.	16e/Jk	.	16cc\Jk	.	.	.	.	.
4C/	.	.	4C/	.	4c\	.	4g/ 4cc	.	4ee\ 4ccc	.	.	.	.	.	.	.	.	.	.	.	.	.	4C/	.	4e/	.	4cc\	.	4ee\	.	4ccc\	.
4r	.	.	4r	.	4r	.	4r	.	4r	.	.	.	.	.	.	.	.	.	.	.	.	.	4r	.	4r	.	4r	.	4r	.	4r	.
=2	=2	=2	=2	=2	=2	=2	=2	=2	=2	=2	=2	=2	=2	=2	=2	=2	=2	=2	=2	=2	=2	=2	=2	=2	=2	=2	=2	=2	=2	=2	=2	=2
!LO:TX:a:t=1	!	!	!LO:TX:a:t=1	!	!LO:TX:a:t=1	!	!LO:TX:a:t=1	!	!LO:TX:a:t=1	!	!	!	!	! 	!	!	!	!	!	! 	!	!	!	!	!	!	!LO:TX:a:t=1	!	!	!	!	!
!	!	!	!	!	!	!	!	!	!	!	!	!	!	!	!	!	!	!	!	!	!	!LO:DY:b	!	!	!	!	!	!	!	!	!	!
!	!	!	!	!	!	!	!	!	!	!	!	!	!	!	!	!	!	!	!LO:DY:b	!	!	!	!	!	!	!	!	!	!	!	!	!
!	!	!	!	!	!	!	!	!	!	!	!	!	!LO:DY:t=fo	!	!	!LO:DY:b	!	!	!	!	!	!	!	!	!	!	!	!	!	!	!	!
!	!	!	!	!	!	!	!	!	!	!	!	!	!LO:DY:b	!	!	!	!	!	!	!	!	!	!	!	!	!	!	!	!	!	!	!
2.r	.	.	2.r	.	2.r	.	2.r	.	2.r	.	4GG/	E-	f	4G\	E-	f	4G/	E-	f	4g\	E-	f	2.r	.	2.r	.	2.r	.	2.r	.	2.r	.
.	.	.	.	.	.	.	.	.	.	.	4C/	-gre-	.	4c\	-gre-	.	4c/	-gre-	.	4cc\	-gre-	.	.	.	.	.	.	.	.	.	.	.
!	!	!	!	!	!	!	!	!	!	!	!	!	!	!	!	!	! 	!	!	!	!	!	!	!	!	!	!	!	!	!	!	!
.	.	.	.	.	.	.	.	.	.	.	4E/	-di-	.	4e\	-di-	.	4e\	-di-	.	4ee\	-di-	.	.	.	.	.	.	.	.	.	.	.
=3	=3	=3	=3	=3	=3	=3	=3	=3	=3	=3	=3	=3	=3	=3	=3	=3	=3	=3	=3	=3	=3	=3	=3	=3	=3	=3	=3	=3	=3	=3	=3	=3
!	!	!	!	!	!	!	!	!	!	!	! 	!	!	!	!	!	!	!	!	!	!	!	!	!	!	!	!	!	!	!	!	!
4G\	.	.	4G\	.	8G/L	.	8g/L 8ff	.	8dd\L 8bb	.	2.G^\	-en-	.	2.g^\	-en-	.	2.g^\	-e-	.	2.gg^\	-en-	.	4GG/	.	4g/	.	4dd\	.	4dd\	.	4gg\	.
.	.	.	.	.	16G/L	.	16g/L 16ff	.	16dd\L 16bb	.	.	.	.	.	.	.	.	.	.	.	.	.	.	.	.	.	.	.	.	.	.	.
.	.	.	.	.	16G/JJ	.	16g/JJ 16ff	.	16dd\JJ 16bb	.	.	.	.	.	.	.	.	.	.	.	.	.	.	.	.	.	.	.	.	.	.	.
*	*	*	*	*	*tremolo	*	*	*	*	*	*	*	*	*	*	*	*	*	*	*	*	*	*	*	*	*	*	*	*	*	*	*
*	*	*	*	*	*	*	*tremolo	*	*	*	*	*	*	*	*	*	*	*	*	*	*	*	*	*	*	*	*	*	*	*	*	*
*	*	*	*	*	*	*	*	*	*tremolo	*	*	*	*	*	*	*	*	*	*	*	*	*	*	*	*	*	*	*	*	*	*	*
8r	.	.	8r	.	8G'/L	.	8g/ 8ffL	.	8dd\ 8bbL	.	.	.	.	.	.	.	.	.	.	.	.	.	8r	.	8r	.	8r	.	8r	.	8r	.
8G\L	.	.	8G\L	.	8G'/	.	8g/ 8ff	.	8dd\ 8bb	.	.	.	.	.	.	.	.	.	.	.	.	.	8GG/L	.	16g/LL	.	16dd\LL	.	8dd\L	.	8gg\L	.
.	.	.	.	.	.	.	.	.	.	.	.	.	.	.	.	.	.	.	.	.	.	.	.	.	16g/JJ	.	16dd\JJ	.	.	.	.	.
8G\	.	.	8G\	.	8G'/	.	8g/ 8ff	.	8dd\ 8bb	.	.	.	.	.	.	.	.	.	.	.	.	.	8GG/	.	8g/L	.	8dd\L	.	8dd\	.	8gg\	.
8G\J	.	.	8G\J	.	8G'/J	.	8g/ 8ffJ	.	8dd\ 8bbJ	.	.	.	.	.	.	.	.	.	.	.	.	.	8GG/J	.	8g/J	.	8dd\J	.	8dd\J	.	8gg\J	.
=4	=4	=4	=4	=4	=4	=4	=4	=4	=4	=4	=4	=4	=4	=4	=4	=4	=4	=4	=4	=4	=4	=4	=4	=4	=4	=4	=4	=4	=4	=4	=4	=4
*	*	*	*tremolo	*	*	*	*	*	*	*	*	*	*	*	*	*	*	*	*	*	*	*	*	*	*	*	*	*	*	*	*	*
!LO:TX:t=P:problem=mixed beam	!	!	!	!	!	!	!	!	!	!	!	!	!	!	!	!	!	!	!	!	!	!	!	!	!	!	!	!	!	!	!	!
!	!	!	!	!LO:DY:b	!	!	!	!	!	!	!	!	!	!	!	!	!	!	!	!	!	!	!	!	!	!	!	!	!	!	!	!
!	!	!LO:DY:b	!	!	!	!	!	!	!	!	!	!	!	!	!	!	!	!	!	!	!	!	!	!	!	!	!	!	!	!	!	!
8c\L	.	p	8C/L	p	8c/L	.	4g/ 4ee	.	4ee\ 4ccc	.	4C/	-tem	.	4g\	-tem	.	4cc\	-ntem	.	4ee\	-tem	.	4C/	.	4e/	.	4cc\	.	4cc\	.	4ee\	.
8C/J	.	.	8C/	.	8c/	.	.	.	.	.	.	.	.	.	.	.	.	.	.	.	.	.	.	.	.	.	.	.	.	.	.	.
*tremolo	*	*	*	*	*	*	*	*	*	*	*	*	*	*	*	*	*	*	*	*	*	*	*	*	*	*	*	*	*	*	*	*
!	!	!	!	!	!	!	!	!	!	!	!	!	!	!	!	!	!	!	!	!	!	!	!	!	!	!	!	!	!	!	!	!
8C'/L	.	.	8C/	.	8c/	.	4r	.	4r	.	4r	.	.	4r	.	.	4r	.	.	4r	.	.	4r	.	4r	.	4r	.	4r	.	4r	.
8C'/	.	.	8C/	.	8c/	.	.	.	.	.	.	.	.	.	.	.	.	.	.	.	.	.	.	.	.	.	.	.	.	.	.	.
8C'/	.	.	8C/	.	8c/	.	4r	.	4r	.	4r	.	.	4r	.	.	4r	.	.	4r	.	.	4r	.	4r	.	4r	.	4r	.	4r	.
8C'/J	.	.	8C/J	.	8c/J	.	.	.	.	.	.	.	.	.	.	.	.	.	.	.	.	.	.	.	.	.	.	.	.	.	.	.
=5	=5	=5	=5	=5	=5	=5	=5	=5	=5	=5	=5	=5	=5	=5	=5	=5	=5	=5	=5	=5	=5	=5	=5	=5	=5	=5	=5	=5	=5	=5	=5||:	=5
!	!	!	!	!	!	!	!	!	!	!	!	!	!	!	!	!	!	!	!	!	!	!	!LO:TX:a:t=8	!	!LO:TX:a:t=7	!	!LO:TX:a:t=7	!	!LO:TX:a:t=2	!	!LO:TX:a:t=2	!
!	!	!	!	!	!	!	!	!	!	!	!	!	!	!	!	!	!	!	!	!	!	!LO:DY:b	!	!	!	!	!	!	!	!	!	!
!	!	!	!	!	!	!	!	!	!	!	!	!	!	!	!	!	!	!	!LO:DY:b	!	!	!	!	!	!	!	!	!	!	!	!	!
!	!	!	!	!	!	!	!	!	!	!	!	!	!	!	!	!LO:DY:b	!	!	!	!	!	!	!	!	!	!	!	!	!	!	!	!
!	!	!	!	!	!	!	!	!	!	!	!	!	!LO:DY:b	!	!	!	!	!	!	!	!	!	!	!	!	!	!	!	!	!	!	!
!	!	!	!	!	!	!	!	!	!	!LO:DY:b	!	!	!	!	!	!	!	!	!	!	!	!	!	!	!	!	!	!	!	!	!	!
!	!	!	!	!	!	!	!	!LO:DY:b	!	!	!	!	!	!	!	!	!	!	!	!	!	!	!	!	!	!	!	!	!	!	!	!
!	!	!	!	!	!	!LO:DY:b:t=p.	!	!	!	!	!	!	!	!	!	!	!	!	!	!	!	!	!	!	!	!	!	!	!	!	!	!
8C/L	.	.	8C/L	.	8c/L	p	4g/	p	4ee\	p	4C/	de	p	4c\	de	p	4g\	de	p	4ee\	de	p	2.r	.	2.r	.	2.r	.	2.r	.	2.r	.
8C/	.	.	8C/	.	8c/	.	.	.	.	.	.	.	.	.	.	.	.	.	.	.	.	.	.	.	.	.	.	.	.	.	.	.
!	!	!	!	!	!	!	!	!	!	!	!	!	!	!	!	!	!	!	!	!LO:SIC:s=tem-	!	!	!	!	!	!	!	!	!	!	!	!
8C/	.	.	8C/	.	8c/	.	4g/	.	4ee\	.	4C/	tem-	.	4c\	tem-	.	4g\	Tem-	.	4ee\	lem-	.	.	.	.	.	.	.	.	.	.	.
8C/	.	.	8C/	.	8c/	.	.	.	.	.	.	.	.	.	.	.	.	.	.	.	.	.	.	.	.	.	.	.	.	.	.	.
8C/	.	.	8C/	.	8c/	.	4g/	.	4ee\	.	4C/	-plo	.	4c\	-plo	.	4g\	-plo	.	4ee\	-plo	.	.	.	.	.	.	.	.	.	.	.
8C/J	.	.	8C/J	.	8c/J	.	.	.	.	.	.	.	.	.	.	.	.	.	.	.	.	.	.	.	.	.	.	.	.	.	.	.
=6	=6	=6	=6	=6	=6	=6	=6	=6	=6	=6	=6	=6	=6	=6	=6	=6	=6	=6	=6	=6	=6	=6	=6	=6	=6	=6	=6	=6	=6	=6	=6	=6
!	!	!	!	!	!LO:TX:t=P:problem= półnuta bez kropki	!	!	!	!	!	!	!	!	!	!	!	!	!	!	!	!	!	!	!	!	!	!	!	!	!	!	!
!	!	!	!	!	!	!	!	!	!	!	!	!	!	!	!	!	!	!	!	!	!	!	!	!	!	!	!	!	!	!	!	!
8C/L	.	.	8C/L	.	8c/L	.	4g/	.	(4ee\	.	2C/	a	.	(4c\	a	.	2g\	a	.	4ee\	a	.	2.r	.	2.r	.	2.r	.	2.r	.	2.r	.
8C/	.	.	8C/	.	8c/	.	.	.	.	.	.	.	.	.	.	.	.	.	.	.	.	.	.	.	.	.	.	.	.	.	.	.
8C/	.	.	8C/	.	8c/	.	4f/	.	4dd\	.	.	.	.	4B\)	.	.	.	.	.	4dd\	.	.	.	.	.	.	.	.	.	.	.	.
8C/	.	.	8C/	.	8c/	.	.	.	.	.	.	.	.	.	.	.	.	.	.	.	.	.	.	.	.	.	.	.	.	.	.	.
8C/	.	.	8C/	.	8c/	.	4e/	.	4cc\)	.	4c\	la-	.	4c\	la-	.	4g\	la-	.	4cc\	la-	.	.	.	.	.	.	.	.	.	.	.
8C/J	.	.	8C/J	.	8c/J	.	.	.	.	.	.	.	.	.	.	.	.	.	.	.	.	.	.	.	.	.	.	.	.	.	.	.
=7	=7	=7	=7	=7	=7	=7	=7	=7	=7	=7	=7	=7	=7	=7	=7	=7	=7	=7	=7	=7	=7	=7	=7	=7	=7	=7	=7	=7	=7	=7	=7	=7
!	!	!	!	!	!	!	!	!	!	!	!	!	!	!	!	!	!	!	!	!	!	!	!	!	!	!	!	!	!	!	!	!
8GG/L	.	.	8G\L	.	2g\	.	2d^/	.	2b^\	.	2.G^\	-te-	.	2d\	-te-	.	2.g^\	-te-	.	2b^\	-te-	.	2.r	.	2.r	.	2.r	.	2ff\	.	2aa\	p
8G\J	.	.	8G\	.	.	.	.	.	.	.	.	.	.	.	.	.	.	.	.	.	.	.	.	.	.	.	.	.	.	.	.	.
8G\L	.	.	8G\	.	.	.	.	.	.	.	.	.	.	.	.	.	.	.	.	.	.	.	.	.	.	.	.	.	.	.	.	.
8G\	.	.	8G\	.	.	.	.	.	.	.	.	.	.	.	.	.	.	.	.	.	.	.	.	.	.	.	.	.	.	.	.	.
8G\	.	.	8G\	.	4g\	.	4f/	.	4dd\	.	.	.	.	4f\	.	.	.	.	.	4dd\	.	.	.	.	.	.	.	.	4dd\	.	4bb\	.
8G\J	.	.	8G\J	.	.	.	.	.	.	.	.	.	.	.	.	.	.	.	.	.	.	.	.	.	.	.	.	.	.	.	.	.
!	!	!	!	!	!	!	!	!	!	!	!	!	!	!	!	!	!	!	!	!LO:LB:g=original	!	!	!	!	!	!	!	!	!	!	!	!
=8	=8	=8	=8	=8	=8	=8	=8	=8	=8	=8	=8	=8	=8	=8	=8	=8	=8	=8	=8	=8	=8	=8	=8	=8	=8	=8	=8	=8	=8	=8	=8	=8
8C/L	.	.	8C/L	.	8c\L	.	4e/	.	4cc\	.	4C/	-re	.	4e\	-re	.	4g\	-re	.	4cc\	-re	.	2.r	.	2.r	.	2.r	.	4ee\	.	4ccc\	.
8C/	.	.	8C/	.	8c\	.	.	.	.	.	.	.	.	.	.	.	.	.	.	.	.	.	.	.	.	.	.	.	.	.	.	.
8C/	.	.	8C/	.	8c\	.	4r	.	4r	.	4r	.	.	4r	.	.	4r	.	.	4r	.	.	.	.	.	.	.	.	4r	.	4r	.
8C/	.	.	8C/	.	8c\	.	.	.	.	.	.	.	.	.	.	.	.	.	.	.	.	.	.	.	.	.	.	.	.	.	.	.
8C/	.	.	8C/	.	8c\	.	4r	.	4r	.	4r	.	.	4r	.	.	4r	.	.	4r	.	.	.	.	.	.	.	.	4r	.	4r	.
8C/J	.	.	8C/J	.	8c\J	.	.	.	.	.	.	.	.	.	.	.	.	.	.	.	.	.	.	.	.	.	.	.	.	.	.	.
!LO:LB:g=original	!	!	!	!	!	!	!	!	!LO:LB:g=original	!	!LO:LB:g=original	!	!	!LO:LB:g=original	!	!	!LO:LB:g=original	!	!	!	!	!	!	!	!	!	!	!	!	!	!	!
=9	=9	=9	=9	=9	=9	=9	=9	=9	=9	=9	=9	=9	=9	=9	=9	=9	=9	=9	=9	=9	=9	=9	=9	=9	=9	=9	=9	=9	=9	=9	=9:||	=9
!	!	!	!	!	!	!	!	!	!	!	!	!	!	!	!	!	!	!	!	!	!	!	!	!	!	!	!	!	!	!	!LO:TX:t=P:problem=takty 9-12 zapisane repetycją	!
!	!	!	!	!	!	!	!	!	!	!	!	!	!	!	!	!	!	!	!	!	!	!	!	!	!	!	!	!	!	!	!LO:TX:a:t=2	!
8C/L	.	.	8C/L	.	8c\L	.	4g/	.	4ee\	.	2C/	dex-	.	2c\	dex-	.	2g\	dex-	.	2ee\	dex-	.	2.r	.	2.r	.	2.r	.	2.r	.	2.ryy	.
8C/	.	.	8C/	.	8c\	.	.	.	.	.	.	.	.	.	.	.	.	.	.	.	.	.	.	.	.	.	.	.	.	.	.	.
8C/	.	.	8C/	.	8c\	.	4g/	.	4ee\	.	.	.	.	.	.	.	.	.	.	.	.	.	.	.	.	.	.	.	.	.	.	.
8C/	.	.	8C/	.	8c\	.	.	.	.	.	.	.	.	.	.	.	.	.	.	.	.	.	.	.	.	.	.	.	.	.	.	.
8C/	.	.	8C/	.	8c\	.	4g/	.	4ee\	.	4C/	-tro	.	4c\	-tro	.	4g\	-tro	.	4ee\	-tro	.	.	.	.	.	.	.	.	.	.	.
8C/J	.	.	8C/J	.	8c\J	.	.	.	.	.	.	.	.	.	.	.	.	.	.	.	.	.	.	.	.	.	.	.	.	.	.	.
!LO:LB:g=original	!	!	!	!	!	!	!LO:LB:g=original	!	!	!	!	!	!	!	!	!	!	!	!	!	!	!	!	!	!	!	!	!	!	!	!	!
=10	=10	=10	=10	=10	=10	=10	=10	=10	=10	=10	=10	=10	=10	=10	=10	=10	=10	=10	=10	=10	=10	=10	=10	=10	=10	=10	=10	=10	=10	=10	=10	=10
8C/L	.	.	8C/L	.	8c\L	.	(<4g/	.	4ee\	.	2C/	Al-	.	(4c\	Al-	.	4g\	Al-	.	(4ee\	Al-	.	2.r	.	2.r	.	2.r	.	2.r	.	2.ryy	.
8C/	.	.	8C/	.	8c\	.	.	.	.	.	.	.	.	.	.	.	.	.	.	.	.	.	.	.	.	.	.	.	.	.	.	.
8C/	.	.	8C/	.	8c\	.	4f/	.	4dd\	.	.	.	.	4d\)	.	.	4f\	.	.	4dd\)	.	.	.	.	.	.	.	.	.	.	.	.
8C/	.	.	8C/	.	8c\	.	.	.	.	.	.	.	.	.	.	.	.	.	.	.	.	.	.	.	.	.	.	.	.	.	.	.
8C/	.	.	8C/	.	8c\	.	4e/)	.	4cc\	.	4c\	-le-	.	4e\	-le-	.	4e\	-le-	.	4cc\	-le-	.	.	.	.	.	.	.	.	.	.	.
8C/J	.	.	8C/J	.	8c\J	.	.	.	.	.	.	.	.	.	.	.	.	.	.	.	.	.	.	.	.	.	.	.	.	.	.	.
!	!	!	!	!	!LO:LB:g=original	!	!	!	!	!	!	!	!	!	!	!	!	!	!	!	!	!	!	!	!	!	!	!	!	!	!	!
=11	=11	=11	=11	=11	=11	=11	=11	=11	=11	=11	=11	=11	=11	=11	=11	=11	=11	=11	=11	=11	=11	=11	=11	=11	=11	=11	=11	=11	=11	=11	=11	=11
!	!	!	!	!	!	!	!	!	!	!	!	!	!	!	!	!	!	!	!	!	!	!	!	!	!	!	!	!	!	!	!	!
8GG/L	.	.	8GG/L	.	2g\	.	(2d^>/	.	2b^\	.	2.G\	-lu-	.	2.f\	-lu-	.	2d\	-lu-	.	2b^\	-lu-	.	2.r	.	2.r	.	2.r	.	2ff\	.	2aa\yy	pyy
8G\J	.	.	8G\J	.	.	.	.	.	.	.	.	.	.	.	.	.	.	.	.	.	.	.	.	.	.	.	.	.	.	.	.	.
8G\L	.	.	8G\L	.	.	.	.	.	.	.	.	.	.	.	.	.	.	.	.	.	.	.	.	.	.	.	.	.	.	.	.	.
8G\	.	.	8G\	.	.	.	.	.	.	.	.	.	.	.	.	.	.	.	.	.	.	.	.	.	.	.	.	.	.	.	.	.
8G\	.	.	8G\	.	4g\	.	4f/)	.	4dd\	.	.	.	.	.	.	.	4f\	.	.	4dd\	.	.	.	.	.	.	.	.	4dd\	.	4bb\yy	.
8G\J	.	.	8G\J	.	.	.	.	.	.	.	.	.	.	.	.	.	.	.	.	.	.	.	.	.	.	.	.	.	.	.	.	.
=12	=12	=12	=12	=12	=12	=12	=12	=12	=12	=12	=12	=12	=12	=12	=12	=12	=12	=12	=12	=12	=12	=12	=12	=12	=12	=12	=12	=12	=12	=12	=12	=12
!	!	!	!	!	!	!	!	!	!	!	!	!	!	!	!	!	!	!	!	!	!	!	!	!	!LO:N:vis=4	!	!	!	!	!	!	!
!	!	!	!	!	!	!	!	!	!	!	!	!	!	!	!	!	!	!	!	!	!	!	!	!	!LO:TX:b:i:t=dol	!	!	!	!	!	!	!
4C\	.	.	4C\	.	4c\	.	4e/	.	4cc\	.	4C/	-ja	.	4e\	-ja	.	4e\	-ja	.	4cc\	-ja	.	2.r	.	4.r	.	4r	.	4ee\	.	4ccc\yy	.
!	!	!	!	!	!	!LO:DY:b	!	!	!	!	!	!	!	!	!	!	!	!	!	!	!	!	!	!	!	!	!	!	!	!	!	!
8r	.	.	8r	.	8r	f	4r	.	4r	.	4r	.	.	4r	.	.	4r	.	.	4r	.	.	.	.	.	.	8r	.	4r	.	4ryy	.
!	!	!	!	!	!	!	!	!	!	!	!	!	!	!	!	!	!	!	!	!	!	!	!	!	!	!	!LO:TX:a:i:t=dol	!	!	!	!	!
8G\L	.	.	8G\L	.	8g'\L	.	.	.	.	.	.	.	.	.	.	.	.	.	.	.	.	.	.	.	8G/L	.	8g\L	.	.	.	.	.
8E\	.	.	8E\	.	8e'\	.	4r	.	4r	.	4r	.	.	4r	.	.	4r	.	.	4r	.	.	.	.	8c/	.	8cc\	.	4r	.	4ryy	.
8C\J	.	.	8C\J	.	8c'\J	.	.	.	.	.	.	.	.	.	.	.	.	.	.	.	.	.	.	.	8e/J	.	8ee\J	.	.	.	.	.
!	!	!	!	!	!	!	!	!	!	!	!	!	!	!	!	!	!	!	!	!	!	!	!	!	!	!	!	!	!LO:LB:g=original	!	!	!
=13	=13	=13	=13	=13	=13	=13	=13	=13	=13	=13	=13	=13	=13	=13	=13	=13	=13	=13	=13	=13	=13	=13	=13	=13	=13	=13	=13	=13	=13	=13	=13	=13
!LO:TX:t=P:problem=mixed beam	!	!	!LO:TX:t=P:problem=mixed beam	!	!	!	!	!	!	!	!	!	!	!	!	!LO:DY:a	!	!	!LO:DY:a	!	!	!	!	!	!	!	!	!	!	!	!	!
!	!	!	!	!	!	!	!	!	!	!	!	!	!	!	!	!	!	!	!	!	!	!LO:DY:b	!	!	!	!	!	!	!	!	!	!
!	!	!	!	!	!	!	!	!	!	!	!	!	!	!	!	!LO:DY:t=fo	!	!	!LO:DY:t=fo	!	!	!	!	!	!	!	!	!	!	!	!	!
!	!	!	!	!	!	!	!	!	!	!LO:DY:b	!	!	!	!	!	!	!	!	!	!	!	!	!	!	!	!	!	!	!	!	!	!
!	!	!	!	!	!	!	!	!LO:DY:b	!	!	!	!	!	!	!	!	!	!	!	!	!	!	!	!	!	!	!	!	!	!	!	!
!	!	!	!	!LO:DY:b	!	!	!	!	!	!	!	!	!	!	!	!	!	!	!	!	!	!	!	!	!	!	!	!	!	!	!	!
8GG/L	.	.	8GG/L	f	8G/L	.	8g/L 8ff	f	8dd\L 8bb	f	4G\	Et	f	4g\	Et	f	4b\	Et	f	4dd\	Et	f	8GG/L	.	8g/L	f	8dd\L	f	4dd\	.	4gg\	.
!	!	!LO:DY:b:t=for	!	!	!	!	!	!	!	!	!	!	!	!	!	!	!	!	!	!	!	!	!	!	!	!	!	!	!	!	!	!
16G\L	3	f	16G\L	.	16G/L	.	16g/L 16ff	.	16dd\L 16bb	.	.	.	.	.	.	.	.	.	.	.	.	.	16GG/L	.	16g/L	.	16dd\L	.	.	.	.	.
16G\JJ	.	.	16G\JJ	.	16G/JJ	.	16g/JJ 16ff	.	16dd\JJ 16bb	.	.	.	.	.	.	.	.	.	.	.	.	.	16GG/JJ	.	16g/JJ	.	16dd\JJ	.	.	.	.	.
*	*	*	*	*	*	*	*	*	*	*	*	*	*	*	*	*	*	*	*	*	*	*	*	*	*tremolo	*	*	*	*	*	*	*
*	*	*	*	*	*	*	*	*	*	*	*	*	*	*	*	*	*	*	*	*	*	*	*	*	*	*	*tremolo	*	*	*	*	*
!	!	!	!	!	!	!	!	!	!	!	!	!	!	!	!	!	!	!	!	!	!	!	!	!	!	!	!	!	!	!	!	!
8G\L	.	.	8G\L	.	8G/L	.	8g/ 8ffL	.	8dd\ 8bbL	.	8G\	o-	.	8g\	o-	.	8b\	o-	.	8dd\	o-	.	8GG/L	.	8g/L	.	8dd'\L	.	8r	.	8r	.
8G\	.	.	8G\	.	8G/	.	8g/ 8ff	.	8dd\ 8bb	.	8G\	-mnes	.	8g\	-mnes	.	8b\	-mnes	.	8dd\	-mnes	.	8GG/	.	8g/	.	8dd'\	.	8dd\L	.	8gg'\L	.
8G\	.	.	8G\	.	8G/	.	8g/ 8ff	.	8dd\ 8bb	.	4G\	ad	.	4g\	ad	.	4b\	ad	.	4dd\	ad	.	8GG/	.	8g/	.	8dd'\	.	8dd\	.	8gg'\	.
8G\J	.	.	8G\J	.	8G/J	.	8g/ 8ffJ	.	8dd\ 8bbJ	.	.	.	.	.	.	.	.	.	.	.	.	.	8GG/J	.	8g/J	.	8dd'\J	.	8dd\J	.	8gg'\J	.
!	!	!	!	!	!	!	!	!	!	!	!	!	!	!	!	!	!	!	!	!	!	!	!LO:LB:g=original	!	!	!	!	!	!	!	!	!
=14	=14	=14	=14	=14	=14	=14	=14	=14	=14	=14	=14	=14	=14	=14	=14	=14	=14	=14	=14	=14	=14	=14	=14	=14	=14	=14	=14	=14	=14	=14	=14	=14
4C/	.	.	4C/	.	4c\	.	4g/ 4ee	.	4ee\ 4ccc	.	4C/	quos	.	4e\	quos	.	4cc\	quos	.	4ee\	quos	.	4C/	.	4e/	.	4cc\	.	4cc\	.	4ee\	.
4r	.	.	4r	.	4r	.	4r	.	4r	.	4r	.	.	4r	.	.	4r	.	.	4r	.	.	4r	.	2r	.	4r	.	4r	.	4r	.
4r	.	.	4r	.	4r	.	4r	.	4r	.	4r	.	.	4r	.	.	4r	.	.	4r	.	.	4r	.	.	.	4r	.	4r	.	4r	.
!	!	!	!	!	!	!	!	!	!	!	!	!	!	!	!	!	!	!	!	!LO:LB:g=original	!	!	!	!	!	!	!	!	!	!	!	!
!	!	!	!	!	!	!	!	!	!	!	!	!	!	!	!	!	!	!	!	!	!	!	!	!	!LO:LB:g=original	!	!LO:LB:g=original	!	!	!	!	!
=15	=15	=15	=15	=15	=15	=15	=15	=15	=15	=15	=15	=15	=15	=15	=15	=15	=15	=15	=15	=15	=15	=15	=15	=15	=15	=15	=15	=15	=15	=15	=15	=15
!	!	!	!	!	!	!	!	!	!	!	!	!	!	!	!	!	!	!	!	!	!	!	!LO:TX:a:t=6	!	!	!	!	!	!	!	!	!
4E\	.	.	4E\	.	8e\L	.	8e/L 8dd	.	8b\L 8gg#X	.	8G#X\	per-	.	8d\	per-	.	8b\	per-	.	8ee\	per-	.	2.r	.	8e/L	.	8e/L	.	4dd\	.	4gg#X\	.
.	.	.	.	.	16e\L	.	16e/L 16dd	.	16b\L 16gg#	.	8G#\	-ve-	.	8d\	-ve-	.	8b\	-ve-	.	8ee\	-ve-	.	.	.	16e/L	.	16e/L	.	.	.	.	.
.	.	.	.	.	16e\JJ	.	16e/JJ 16dd	.	16b\JJ 16gg#	.	.	.	.	.	.	.	.	.	.	.	.	.	.	.	16e/JJ	.	16e/JJ	.	.	.	.	.
!	!	!	!	!	!	!	!	!	!	!	!	!	!	!	!	!	!	!	!	!	!	!	!	!	!	!	!	!	!	!	!	!
8r	.	.	8r	.	8e\L	.	8e/ 8ddL	.	8b\ 8gg#L	.	4G#\	-nit	.	4d\	-nit	.	4b\	-nit	.	4ee\	-nit	.	.	.	8e'/L	.	8e'/L	.	8r	.	8r	.
8E\L	.	.	8E\L	.	8e\	.	8e/ 8dd	.	8b\ 8gg#	.	.	.	.	.	.	.	.	.	.	.	.	.	.	.	8e'/	.	8e'/	.	8dd\L	.	8gg#\L	.
!	!	!	!	!	!	!	!	!	!	!	!	!	!	!	!	!	!LO:LB:g=original	!	!	!	!	!	!	!	!	!	!	!	!	!	!	!
8F#X\	#6	.	8F#X\	.	8e\	.	8e/ 8dd	.	8b\ 8gg#	.	4G#\	a-	.	4d\	a-	.	4b\	a-	.	4gg#X\	a-	.	.	.	8e'/	.	8e'/	.	8dd\	.	8gg#\	.
8G#X\J	5	.	8G#X\J	.	8e\J	.	8e/ 8ddJ	.	8b\ 8gg#J	.	.	.	.	.	.	.	.	.	.	.	.	.	.	.	8e'/J	.	8e'/J	.	8dd\J	.	8gg#\J	.
!	!	!	!	!	!	!	!	!	!	!	!LO:LB:g=original	!	!	!LO:LB:g=original	!	!	!	!	!	!	!	!	!	!	!	!	!	!	!	!	!	!
!LO:LB:g=original	!	!	!	!	!	!	!	!	!	!	!	!	!	!	!	!	!	!	!	!	!	!	!	!	!	!	!	!	!	!	!LO:LB:g=original	!
=16	=16	=16	=16	=16	=16	=16	=16	=16	=16	=16	=16	=16	=16	=16	=16	=16	=16	=16	=16	=16	=16	=16	=16	=16	=16	=16	=16	=16	=16	=16	=16	=16
!LO:TX:t=P:problem=brak taktu nr 16	!	!	!	!	!	!	!	!	!	!	!	!	!	!	!	!	!	!	!	!	!	!	!	!	!	!	!	!	!	!	!	!
2.ryy	.	.	4A\	.	4a\	.	4e/ 4cc	.	4cc\ 4aa	.	4A\	-qua	.	4e\	-qua	.	4cc\	-qua	.	4aa\	-qua	.	2.r	.	4e/	.	4e/	.	4cc\	.	4aa\	.
.	.	.	4r	.	4r	.	4r	.	4r	.	4r	.	.	4r	.	.	4r	.	.	4r	.	.	.	.	4r	.	4r	.	4r	.	4r	.
.	.	.	4r	.	4r	.	4r	.	4r	.	4r	.	.	4r	.	.	4r	.	.	4r	.	.	.	.	4r	.	4r	.	4r	.	4r	.
!	!	!	!LO:LB:g=original	!	!	!	!	!	!LO:LB:g=original	!	!	!	!	!	!	!	!	!	!	!	!	!	!	!	!	!	!	!	!	!	!	!
=17	=17	=17	=17	=17	=17	=17	=17	=17	=17	=17	=17	=17	=17	=17	=17	=17	=17	=17	=17	=17	=17	=17	=17	=17	=17	=17	=17	=17	=17	=17	=17	=17
!	!	!	!	!	!	!	! 	!	!	!	!	!	!	!	!	!	!	!	!	!	!	!	!	!	! 	!	!	!	!	!	!	!
4F\	.	.	4F\	.	8a\L	.	8ff\L	.	8ddd\L	.	8F\	i-	.	8f\	i-	.	8a\	i-	.	8dd\	i-	.	2.r	.	8dd\L	.	8dd\L	.	4dd\	.	4ff\	.
.	.	.	.	.	16a\L	.	16ff\L	.	16ddd\L	.	8F\	-sta	.	8f\	-sta	.	8a\	-sta	.	8dd\	-sta	.	.	.	16dd\L	.	16dd\L	.	.	.	.	.
.	.	.	.	.	16a\JJ	.	16ff\JJ	.	16ddd\JJ	.	.	.	.	.	.	.	.	.	.	.	.	.	.	.	16dd\JJ	.	16dd\JJ	.	.	.	.	.
*Xtremolo	*	*	*Xtremolo	*	*Xtremolo	*	*Xtremolo	*	*Xtremolo	*	*	*	*	*	*	*	*	*	*	*	*	*	*	*	*	*	*	*	*	*	*	*
8r	.	.	8r	.	8a\L	.	8ff\L	.	8ddd\L	.	4F\	sal-	.	4f\	sal-	.	4a\	sal-	.	4dd\	sal-	.	.	.	4dd\	.	4dd\	.	8r	.	8r	.
8F\L	6	.	8F\L	.	8a\J	.	8ff\	.	8ddd\	.	.	.	.	.	.	.	.	.	.	.	.	.	.	.	.	.	.	.	8dd\L	.	8ff\L	.
!	!	!	!	!	!LO:LB:g=original	!	!	!	!	!	!	!	!	!LO:SIC:s=-vi	!	!	!	!	!	!	!	!	!	!	!	!	!	!	!	!	!	!
8G\	#4_	.	8G\	.	8b-X\L	.	8ee\	.	8ccc#X\	.	4G\	-vi	.	4g\	-vo	.	4b-X\	-vi	.	4cc#X\	-vi	.	.	.	4r	.	4r	.	8ee\	.	8gg\	.
8G\J	.	.	8G\J	.	8b-\J	.	8ee\J	.	8ccc#\J	.	.	.	.	.	.	.	.	.	.	.	.	.	.	.	.	.	.	.	8ee\J	.	8gg\J	.
!	!	!	!	!	!	!	!LO:LB:g=original	!	!	!	!	!	!	!	!	!	!	!	!	!	!	!	!	!	!	!	!	!	!	!	!	!
=18	=18	=18	=18	=18	=18	=18	=18	=18	=18	=18	=18	=18	=18	=18	=18	=18	=18	=18	=18	=18	=18	=18	=18	=18	=18	=18	=18	=18	=18	=18	=18	=18
*	*	*	*	*	*	*	*	*	*rep	*	*	*	*	*	*	*	*	*	*	*	*	*	*	*	*rep	*	*rep	*	*	*	*	*
4F\	.	.	4F\	.	8a\L	.	8ff\L	.	8ddd\L	.	2F\	fac-	.	2f\	fac-	.	2a\	fac-	.	2dd\	fac-	.	2.r	.	8dd\L	.	8dd\L	.	4dd\	.	4ff\	.
.	.	.	.	.	16a\L	.	16ff\L	.	16ddd\L	.	.	.	.	.	.	.	.	.	.	.	.	.	.	.	16dd\L	.	16dd\L	.	.	.	.	.
.	.	.	.	.	16a\JJ	.	16ff\JJ	.	16ddd\JJ	.	.	.	.	.	.	.	.	.	.	.	.	.	.	.	16dd\JJ	.	16dd\JJ	.	.	.	.	.
8r	.	.	8r	.	8a\L	.	8ff\L	.	8ddd\L	.	.	.	.	.	.	.	.	.	.	.	.	.	.	.	4dd\	.	4dd\	.	8r	.	8r	.
8F\L	6	.	8F\L	.	8a\J	.	8ff\J	.	8ddd\	.	.	.	.	.	.	.	.	.	.	.	.	.	.	.	.	.	.	.	8dd\L	.	8ff\L	.
!	!	!	!	!	!	!	!	!	!	!	!	!	!	!	!	!	!	!	!	!LO:SIC:s=4cc#	!	!	!	!	!	!	!	!	!	!	!	!
!	!	!	!	!	!	!	!	!	!	!	!	!	!	!	!	!	!LO:SIC:s=4b-	!	!	!LO:SIC:s=-ti	!	!	!	!	!	!	!	!	!	!	!	!
8G\	#4_	.	8G\	.	8b-X\L	.	8ee\L	.	8ccc#X\	.	4G\	-ti	.	4g\	-ti	.	4b\	-ti	.	4cc\	-ta	.	.	.	4r	.	4r	.	8ee\	.	8gg\	.
8G\J	.	.	8G\J	.	8b-\J	.	8ee\J	.	8ccc#\J	.	.	.	.	.	.	.	.	.	.	.	.	.	.	.	.	.	.	.	8ee\J	.	8gg\J	.
*	*	*	*	*	*	*	*	*	*Xrep	*	*	*	*	*	*	*	*	*	*	*	*	*	*	*	*Xrep	*	*Xrep	*	*	*	*	*
=19	=19	=19	=19	=19	=19	=19	=19	=19	=19	=19	=19	=19	=19	=19	=19	=19	=19	=19	=19	=19	=19	=19	=19	=19	=19	=19	=19	=19	=19	=19	=19	=19
*tremolo	*	*	*tremolo	*	*	*	*tremolo	*	*	*	*	*	*	*	*	*	*	*	*	*	*	*	*	*	*rep	*	*rep	*	*	*	*	*
8F\L	6	.	8F\L	.	8a\L	.	8dd\L	.	8ddd\L	.	2F\	sunt	.	2f\	sunt	.	2a\	sunt	.	2dd\	sunt	.	2.r	.	8dd\L	.	8dd\L	.	2dd\	.	2ff\	.
8F\	.	.	8F\	.	8f\	.	8dd\	.	8ddd\J	.	.	.	.	.	.	.	.	.	.	.	.	.	.	.	16dd\L	.	16dd\L	.	.	.	.	.
.	.	.	.	.	.	.	.	.	.	.	.	.	.	.	.	.	.	.	.	.	.	.	.	.	16dd\JJ	.	16dd\JJ	.	.	.	.	.
8F\	.	.	8F\	.	8f\	.	8dd\	.	8ddd\L	.	.	.	.	.	.	.	.	.	.	.	.	.	.	.	4dd\	.	4dd\	.	.	.	.	.
8F\J	.	.	8F\J	.	8f\J	.	8dd\J	.	8ddd\	.	.	.	.	.	.	.	.	.	.	.	.	.	.	.	.	.	.	.	.	.	.	.
*Xtremolo	*	*	*Xtremolo	*	*	*	*Xtremolo	*	*	*	*	*	*	*	*	*	*	*	*	*	*	*	*	*	*	*	*	*	*	*	*	*
8C#X/L	3_	.	8C#X\L	.	8c#X\L	.	8gg\L	.	8eee\	.	4C#X\	et	.	4c#X\	et	.	4g\	et	.	4ee\	et	.	.	.	4r	.	4r	.	4ee\	.	4gg\	.
8C#/J	.	.	8C#\J	.	8c#\J	.	8gg\J	.	8eee\J	.	.	.	.	.	.	.	.	.	.	.	.	.	.	.	.	.	.	.	.	.	.	.
*	*	*	*	*	*	*	*	*	*	*	*	*	*	*	*	*	*	*	*	*	*	*	*	*	*Xrep	*	*Xrep	*	*	*	*	*
=20	=20	=20	=20	=20	=20	=20	=20	=20	=20	=20	=20	=20	=20	=20	=20	=20	=20	=20	=20	=20	=20	=20	=20	=20	=20	=20	=20	=20	=20	=20	=20	=20
!	!	!	!	!	!	!	!	!	!	!	!	!	!	!	!	!	!	!	!	!	!	!	!	!	!	!	!LO:TX:a:t=1	!	!	!	!	!
8D\L	.	.	8D\L	.	8d\L	.	8aa\L	.	8fff\L	.	(4D\	di-	.	(4d\	di-	.	(4a\	di-	.	(4ff\	di-	.	2.r	.	2.r	.	2.r	.	4ff\	.	4aa\	.
8D\	.	.	8D\	.	8d\	.	8aa\	.	8fff\	.	.	.	.	.	.	.	.	.	.	.	.	.	.	.	.	.	.	.	.	.	.	.
8E\	.	.	8E\	.	8e\	.	8gg\	.	8eee\	.	4E\)	.	.	4e\)	.	.	4g\)	.	.	4ee\)	.	.	.	.	.	.	.	.	4ee\	.	4gg\	.
8E\	.	.	8E\	.	8e\	.	8gg\	.	8eee\	.	.	.	.	.	.	.	.	.	.	.	.	.	.	.	.	.	.	.	.	.	.	.
8F\	.	.	8F\	.	8f\	.	8ff\	.	8ddd\	.	4F\	-cent	.	4f\	-cent	.	4f\	-cent	.	4dd\	-cent	.	.	.	.	.	.	.	4dd\	.	4ff\	.
8F\J	.	.	8F\J	.	8f\J	.	8ff\J	.	8ddd\J	.	.	.	.	.	.	.	.	.	.	.	.	.	.	.	.	.	.	.	.	.	.	.
!	!	!	!	!	!	!	!	!	!	!	!	!	!	!	!	!	!	!	!	!LO:LB:g=original	!	!	!	!	!	!	!	!	!LO:LB:g=original	!	!	!
=21	=21	=21	=21	=21	=21	=21	=21	=21	=21	=21	=21	=21	=21	=21	=21	=21	=21	=21	=21	=21	=21	=21	=21	=21	=21	=21	=21	=21	=21	=21	=21	=21
*tremolo	*	*	*tremolo	*	*tremolo	*	*tremolo	*	*tremolo	*	*	*	*	*	*	*	*	*	*	*	*	*	*	*	*	*	*	*	*	*	*tremolo	*
!	!	!	!	!	!	!	!	!	!	!	!	!	!	!	!	!	!	!	!	!	!	!	!	!	!	!	!	!	!	!	!	!
8G\L	.	.	8G\L	.	16g\LL	.	16ee\LL	.	16ccc\LL	.	2G\	Al-	.	2e\	Al-	.	2e\	Al-	.	2gg\	Al-	.	8C/L	.	8e/L	.	8cc\L	.	8cc\L	.	8ee'\L	.
.	.	.	.	.	16g\	.	16ee\	.	16ccc\	.	.	.	.	.	.	.	.	.	.	.	.	.	.	.	.	.	.	.	.	.	.	.
8G\	.	.	8G\	.	16g\	.	16ee\	.	16ccc\	.	.	.	.	.	.	.	.	.	.	.	.	.	16C/L	.	16e/L	.	16cc\L	.	8cc\J	.	8ee'\	.
.	.	.	.	.	16g\	.	16ee\	.	16ccc\	.	.	.	.	.	.	.	.	.	.	.	.	.	16C/JJ	.	16e/JJ	.	16cc\JJ	.	.	.	.	.
*	*	*	*	*	*	*	*	*	*	*	*	*	*	*	*	*	*	*	*	*	*	*	*	*	*	*	*	*	*tremolo	*	*Xtremolo	*
!	!	!	!	!	!	!	!	!	!	!	!	!	!	!	!	!	!	!	!	!	!	!	!	!	!	!	!	!	!	!	!	!
8G\	.	.	8G\	.	16g\	.	16ee\	.	16ccc\	.	.	.	.	.	.	.	.	.	.	.	.	.	8C/L	.	8e/L	.	8cc\L	.	8cc'\L	.	8ee'\	.
.	.	.	.	.	16g\	.	16ee\	.	16ccc\	.	.	.	.	.	.	.	.	.	.	.	.	.	.	.	.	.	.	.	.	.	.	.
8G\	.	.	8G\	.	16g\	.	16ee\	.	16ccc\	.	.	.	.	.	.	.	.	.	.	.	.	.	8C/	.	8e/	.	8cc\	.	8cc'\	.	8ee'\J	.
.	.	.	.	.	16g\	.	16ee\	.	16ccc\	.	.	.	.	.	.	.	.	.	.	.	.	.	.	.	.	.	.	.	.	.	.	.
8G\	.	.	8G\	.	16g\	.	16ee\	.	16ccc\	.	4G\	-le-	.	4e\	-le-	.	4e\	-le-	.	4gg\	-le-	.	8C/	.	8e/	.	8cc\	.	8cc'\	.	8ee\L	.
.	.	.	.	.	16g\	.	16ee\	.	16ccc\	.	.	.	.	.	.	.	.	.	.	.	.	.	.	.	.	.	.	.	.	.	.	.
8G\J	.	.	8G\J	.	16g\	.	16ee\	.	16ccc\	.	.	.	.	.	.	.	.	.	.	.	.	.	8C/J	.	8e/J	.	8cc\J	.	8cc'\J	.	8ee\J	.
.	.	.	.	.	16g\JJ	.	16ee\JJ	.	16ccc\JJ	.	.	.	.	.	.	.	.	.	.	.	.	.	.	.	.	.	.	.	.	.	.	.
=22	=22	=22	=22	=22	=22	=22	=22	=22	=22	=22	=22	=22	=22	=22	=22	=22	=22	=22	=22	=22	=22	=22	=22	=22	=22	=22	=22	=22	=22	=22	=22	=22
!	!	!	!	!	!	!	!	!	!	!	!	!	!	!	!	!	!	!	!	!	!	!	!	!	!	!	!	!	!LO:TX:t=P:problem=1 półnuta	!	!	!
*	*	*	*	*	*	*	*	*	*	*	*	*	*	*	*	*	*	*	*	*	*	*	*	*	*	*	*	*	*	*	*tremolo	*
8GG/L	.	.	8GG/L	.	16g\LL	.	16g/ 16ffLL	.	16bb\LL	.	2.GG/	-lu-	.	2.f\	-lu-	.	2.g\	-lu-	.	2.b\	-lu-	.	8GG/L	.	8g/L	.	8dd\L	.	8b\L	.	8dd\L	.
.	.	.	.	.	16g\	.	16g/ 16ff	.	16bb\	.	.	.	.	.	.	.	.	.	.	.	.	.	.	.	.	.	.	.	.	.	.	.
8GG/	.	.	8GG/	.	16g\	.	16g/ 16ff	.	16bb\	.	.	.	.	.	.	.	.	.	.	.	.	.	16GG/L	.	16g/L	.	16dd\L	.	8b\	.	8dd\	.
.	.	.	.	.	16g\	.	16g/ 16ff	.	16bb\	.	.	.	.	.	.	.	.	.	.	.	.	.	16GG/JJ	.	16g/JJ	.	16dd\JJ	.	.	.	.	.
!	!	!	!	!	!	!	!	!	!	!	!	!	!	!	!	!	!	!	!	!	!	!	!	!	!	!	!	!	!	!	!	!
8GG/	.	.	8GG/	.	16g\	.	16g/ 16ff	.	16bb\	.	.	.	.	.	.	.	.	.	.	.	.	.	8GG/L	.	8g/L	.	8dd'\L	.	8b\	.	8dd\	.
.	.	.	.	.	16g\	.	16g/ 16ff	.	16bb\	.	.	.	.	.	.	.	.	.	.	.	.	.	.	.	.	.	.	.	.	.	.	.
8GG/	.	.	8GG/	.	16g\	.	16g/ 16ff	.	16bb\	.	.	.	.	.	.	.	.	.	.	.	.	.	8GG/	.	8g/	.	8dd'\	.	8b\	.	8dd\	.
.	.	.	.	.	16g\	.	16g/ 16ff	.	16bb\	.	.	.	.	.	.	.	.	.	.	.	.	.	.	.	.	.	.	.	.	.	.	.
8GG/	.	.	8GG/	.	16g\	.	16g/ 16ff	.	16bb\	.	.	.	.	.	.	.	.	.	.	.	.	.	8GG/	.	8g/	.	8dd'\	.	8b\	.	8dd\	.
.	.	.	.	.	16g\	.	16g/ 16ff	.	16bb\	.	.	.	.	.	.	.	.	.	.	.	.	.	.	.	.	.	.	.	.	.	.	.
8GG/J	.	.	8GG/J	.	16g\	.	16g/ 16ff	.	16bb\	.	.	.	.	.	.	.	.	.	.	.	.	.	8GG/J	.	8g/J	.	8dd'\J	.	8b\J	.	8dd\J	.
.	.	.	.	.	16g\JJ	.	16g/ 16ffJJ	.	16bb\JJ	.	.	.	.	.	.	.	.	.	.	.	.	.	.	.	.	.	.	.	.	.	.	.
*	*	*	*	*	*	*	*	*	*	*	*	*	*	*	*	*	*	*	*	*	*	*	*	*	*	*	*	*	*	*	*Xtremolo	*
*	*	*	*Xtremolo	*	*Xtremolo	*	*Xtremolo	*	*	*	*	*	*	*	*	*	*	*	*	*	*	*	*	*	*	*	*	*	*Xtremolo	*	*	*
!	!	!	!	!	!	!	!	!	!LO:LB:g=original	!	!LO:LB:g=original	!	!	!LO:LB:g=original	!	!	!LO:LB:g=original	!	!	!	!	!	!	!	!	!	!	!	!	!	!	!
!LO:LB:g=original	!	!	!	!	!	!	!	!	!	!	!	!	!	!	!	!	!	!	!	!	!	!	!	!	!LO:LB:g=original	!	!LO:LB:g=original	!	!	!	!	!
=23	=23	=23	=23	=23	=23	=23	=23	=23	=23	=23	=23	=23	=23	=23	=23	=23	=23	=23	=23	=23	=23	=23	=23	=23	=23	=23	=23	=23	=23	=23	=23	=23
4C\	3	.	4C\	.	8e\L	.	16ee\LL	.	16ee\LL	.	4C\	-ja	.	4e\	-ja	.	4g\	-ja	.	4cc\	-ja	.	4C/	.	4e/	.	4cc\	.	4cc\	.	4ee\	.
.	.	.	.	.	.	.	16ee\	.	16ccc\	.	.	.	.	.	.	.	.	.	.	.	.	.	.	.	.	.	.	.	.	.	.	.
.	.	.	.	.	8e\	.	16cc\	.	16ccc\	.	.	.	.	.	.	.	.	.	.	.	.	.	.	.	.	.	.	.	.	.	.	.
.	.	.	.	.	.	.	16cc\JJ	.	16ccc\JJ	.	.	.	.	.	.	.	.	.	.	.	.	.	.	.	.	.	.	.	.	.	.	.
*	*	*	*	*	*	*	*tremolo	*	*	*	*	*	*	*	*	*	*	*	*	*	*	*	*	*	*	*	*	*	*	*	*	*
4D\	3	.	4D\	.	8f\	.	16dd\LL	.	16ff\LL	.	4D\	Con-	.	4c\	con-	.	4f\	con-	.	4cc\	Con-	.	4r	.	4r	.	4r	.	4r	.	4r	.
.	.	.	.	.	.	.	16dd\	.	16ccc\	.	.	.	.	.	.	.	.	.	.	.	.	.	.	.	.	.	.	.	.	.	.	.
.	.	.	.	.	8f\	.	16dd\	.	16ccc\	.	.	.	.	.	.	.	.	.	.	.	.	.	.	.	.	.	.	.	.	.	.	.
.	.	.	.	.	.	.	16dd\JJ	.	16ccc\JJ	.	.	.	.	.	.	.	.	.	.	.	.	.	.	.	.	.	.	.	.	.	.	.
4E\	3	.	4E\	.	8g\	.	16ee\LL	.	16gg\LL	.	4E\	-fi-	.	4c\	-fi-	.	4g\	-fi-	.	4cc\	-fi-	.	4r	.	4r	.	4r	.	4r	.	4r	.
.	.	.	.	.	.	.	16ee\	.	16ccc\	.	.	.	.	.	.	.	.	.	.	.	.	.	.	.	.	.	.	.	.	.	.	.
.	.	.	.	.	8g\J	.	16ee\	.	16ccc\	.	.	.	.	.	.	.	.	.	.	.	.	.	.	.	.	.	.	.	.	.	.	.
.	.	.	.	.	.	.	16ee\JJ	.	16ccc\JJ	.	.	.	.	.	.	.	.	.	.	.	.	.	.	.	.	.	.	.	.	.	.	.
!	!	!	!LO:LB:g=original	!	!LO:LB:g=original	!	!LO:LB:g=original	!	!	!	!	!	!	!	!	!	!	!	!	!	!	!	!	!	!	!	!	!	!	!	!	!
=24	=24	=24	=24	=24	=24	=24	=24	=24	=24	=24	=24	=24	=24	=24	=24	=24	=24	=24	=24	=24	=24	=24	=24	=24	=24	=24	=24	=24	=24	=24	=24	=24
!	!	!	!	!	!	!	!	!	!	!	!	!	!	!	!	!	!	!	!	!	!	!	!LO:TX:a:t=7	!	!LO:TX:a:t=7	!	!LO:TX:a:t=7	!	!LO:TX:a:t=6	!	!LO:TX:a:t=6	!
4F\	3	.	4F\	.	8a\L	.	16ff\LL	.	16aa\LL	.	4F\	-te-	.	4c\	-te-	.	4a\	-te-	.	4cc\	-te-	.	2.r	.	2.r	.	2.r	.	2.r	.	2.r	.
.	.	.	.	.	.	.	16ff\	.	16ccc\	.	.	.	.	.	.	.	.	.	.	.	.	.	.	.	.	.	.	.	.	.	.	.
.	.	.	.	.	8a\	.	16ff\	.	16ccc\	.	.	.	.	.	.	.	.	.	.	.	.	.	.	.	.	.	.	.	.	.	.	.
.	.	.	.	.	.	.	16ff\JJ	.	16ccc\JJ	.	.	.	.	.	.	.	.	.	.	.	.	.	.	.	.	.	.	.	.	.	.	.
4G\	-3	.	4G\	.	8b-X\	.	16gg\LL	.	16bb-X\LL	.	4G\	-mi-	.	4c\	-mi-	.	4b-X\	-mi-	.	4cc\	-mi-	.	.	.	.	.	.	.	.	.	.	.
.	.	.	.	.	.	.	16gg\	.	16ccc\	.	.	.	.	.	.	.	.	.	.	.	.	.	.	.	.	.	.	.	.	.	.	.
.	.	.	.	.	8b-\	.	16gg\	.	16ccc\	.	.	.	.	.	.	.	.	.	.	.	.	.	.	.	.	.	.	.	.	.	.	.
.	.	.	.	.	.	.	16gg\JJ	.	16ccc\JJ	.	.	.	.	.	.	.	.	.	.	.	.	.	.	.	.	.	.	.	.	.	.	.
4F\	3	.	4F\	.	8a\	.	16ff\LL	.	16aa\LL	.	4F\	-ni	.	4c\	-ni	.	4a\	-ni	.	4cc\	-ni	.	.	.	.	.	.	.	.	.	.	.
.	.	.	.	.	.	.	16ff\	.	16ccc\	.	.	.	.	.	.	.	.	.	.	.	.	.	.	.	.	.	.	.	.	.	.	.
.	.	.	.	.	8a\J	.	16ff\	.	16ccc\	.	.	.	.	.	.	.	.	.	.	.	.	.	.	.	.	.	.	.	.	.	.	.
.	.	.	.	.	.	.	16ff\JJ	.	16ccc\JJ	.	.	.	.	.	.	.	.	.	.	.	.	.	.	.	.	.	.	.	.	.	.	.
=25	=25	=25	=25	=25	=25	=25	=25	=25	=25	=25	=25	=25	=25	=25	=25	=25	=25	=25	=25	=25	=25	=25	=25	=25	=25	=25	=25	=25	=25	=25	=25	=25
4D\	3	.	4D\	.	8f#X\L	.	16dd\LL	.	16ff#X\LL	.	4D\	Do-	.	4d\	Do-	.	4f#X\	Do-	.	4dd\	Do-	.	2.r	.	2.r	.	2.r	.	2.r	.	2.r	.
.	.	.	.	.	.	.	16dd\	.	16ddd\	.	.	.	.	.	.	.	.	.	.	.	.	.	.	.	.	.	.	.	.	.	.	.
.	.	.	.	.	8f#\	.	16dd\	.	16ddd\	.	.	.	.	.	.	.	.	.	.	.	.	.	.	.	.	.	.	.	.	.	.	.
.	.	.	.	.	.	.	16dd\JJ	.	16ddd\JJ	.	.	.	.	.	.	.	.	.	.	.	.	.	.	.	.	.	.	.	.	.	.	.
4E\	3	.	4E\	.	8g\	.	16ee\LL	.	16gg\LL	.	4E\	-mi-	.	4d\	-mi-	.	4g\	-mi-	.	4dd\	-mi-	.	.	.	.	.	.	.	.	.	.	.
.	.	.	.	.	.	.	16ee\	.	16ddd\	.	.	.	.	.	.	.	.	.	.	.	.	.	.	.	.	.	.	.	.	.	.	.
.	.	.	.	.	8g\	.	16ee\	.	16ddd\	.	.	.	.	.	.	.	.	.	.	.	.	.	.	.	.	.	.	.	.	.	.	.
.	.	.	.	.	.	.	16ee\JJ	.	16ddd\JJ	.	.	.	.	.	.	.	.	.	.	.	.	.	.	.	.	.	.	.	.	.	.	.
4F#X\	3	.	4F#X\	.	8a\	.	16ff#X\LL	.	16aa\LL	.	4F#X\	-no	.	4d\	-no	.	4a\	-no	.	4dd\	-no	.	.	.	.	.	.	.	.	.	.	.
.	.	.	.	.	.	.	16ff#X\	.	16ddd\	.	.	.	.	.	.	.	.	.	.	.	.	.	.	.	.	.	.	.	.	.	.	.
.	.	.	.	.	8a\J	.	16ff#X\	.	16ddd\	.	.	.	.	.	.	.	.	.	.	.	.	.	.	.	.	.	.	.	.	.	.	.
.	.	.	.	.	.	.	16ff#X\JJ	.	16ddd\JJ	.	.	.	.	.	.	.	.	.	.	.	.	.	.	.	.	.	.	.	.	.	.	.
!	!	!	!	!	!	!	!	!	!LO:LB:g=original	!	!	!	!	!	!	!	!	!	!	!	!	!	!	!	!	!	!	!	!	!	!	!
=26	=26	=26	=26	=26	=26	=26	=26	=26	=26	=26	=26	=26	=26	=26	=26	=26	=26	=26	=26	=26	=26	=26	=26	=26	=26	=26	=26	=26	=26	=26	=26	=26
4G\	n3	.	4G\	.	8bn\L	.	16gg\LL	.	16bb\LL	.	4G\	quo-	.	4d\	quo-	.	4b\	quo-	.	4dd\	quo-	.	2.r	.	2.r	.	2.r	.	2.r	.	2.r	.
.	.	.	.	.	.	.	16gg\	.	16ddd\	.	.	.	.	.	.	.	.	.	.	.	.	.	.	.	.	.	.	.	.	.	.	.
.	.	.	.	.	8b\	.	16gg\	.	16ddd\	.	.	.	.	.	.	.	.	.	.	.	.	.	.	.	.	.	.	.	.	.	.	.
.	.	.	.	.	.	.	16gg\JJ	.	16ddd\JJ	.	.	.	.	.	.	.	.	.	.	.	.	.	.	.	.	.	.	.	.	.	.	.
4A\	3	.	4A\	.	8cc\	.	16aa\LL	.	16ccc\LL	.	8A\	-ni-	.	8d\	-ni-	.	8cc\	-ni-	.	8dd\	-ni-	.	.	.	.	.	.	.	.	.	.	.
.	.	.	.	.	.	.	16aa\	.	16ddd\	.	.	.	.	.	.	.	.	.	.	.	.	.	.	.	.	.	.	.	.	.	.	.
.	.	.	.	.	8cc\	.	16aa\	.	16ddd\	.	8A\	-am	.	8d\	-am	.	8cc\	-am	.	8dd\	-am	.	.	.	.	.	.	.	.	.	.	.
.	.	.	.	.	.	.	16aa\JJ	.	16ddd\JJ	.	.	.	.	.	.	.	.	.	.	.	.	.	.	.	.	.	.	.	.	.	.	.
!	!	!	!	!	!	!	!	!	!	!	!	!	!	!LO:LB:g=original	!	!	!	!	!	!	!	!	!	!	!	!	!	!	!	!	!	!
4G\	3	.	4G\	.	8b\	.	16gg\LL	.	16bb\LL	.	8G\	bo-	.	8d\	bo-	.	8b\	bo-	.	8dd\	bo-	.	.	.	.	.	.	.	.	.	.	.
.	.	.	.	.	.	.	16gg\	.	16ddd\	.	.	.	.	.	.	.	.	.	.	.	.	.	.	.	.	.	.	.	.	.	.	.
.	.	.	.	.	8b\J	.	16gg\	.	16ddd\	.	8G\	-nuſ	.	8d\	-nuſ	.	8b\	-nuſ	.	8dd\	-nuſ	.	.	.	.	.	.	.	.	.	.	.
.	.	.	.	.	.	.	16gg\JJ	.	16ddd\JJ	.	.	.	.	.	.	.	.	.	.	.	.	.	.	.	.	.	.	.	.	.	.	.
!	!	!	!	!	!	!	!	!	!	!	!	!	!	!	!	!	!	!	!	!LO:LB:g=original	!	!	!	!	!	!	!	!	!	!	!	!
=27	=27	=27	=27	=27	=27	=27	=27	=27	=27	=27	=27	=27	=27	=27	=27	=27	=27	=27	=27	=27	=27	=27	=27	=27	=27	=27	=27	=27	=27	=27	=27	=27
4E\	#3	.	4E\	.	8g#X\L	.	16ee\LL	.	16gg#X\LL	.	4E\	quo-	.	4e\	quo-	.	4g#X\	quo-	.	4ee\	quo-	.	2.r	.	2.r	.	2.r	.	2.r	.	2.r	.
.	.	.	.	.	.	.	16ee\	.	16eee\	.	.	.	.	.	.	.	.	.	.	.	.	.	.	.	.	.	.	.	.	.	.	.
.	.	.	.	.	8g#\	.	16ee\	.	16eee\	.	.	.	.	.	.	.	.	.	.	.	.	.	.	.	.	.	.	.	.	.	.	.
.	.	.	.	.	.	.	16ee\JJ	.	16eee\JJ	.	.	.	.	.	.	.	.	.	.	.	.	.	.	.	.	.	.	.	.	.	.	.
4F#X\	3	.	4F#X\	.	8a\	.	16ff#X\LL	.	16aa\LL	.	4F#X\	-ni-	.	4e\	-ni-	.	4a\	-ni-	.	4ee\	-ni-	.	.	.	.	.	.	.	.	.	.	.
.	.	.	.	.	.	.	16ff#X\	.	16eee\	.	.	.	.	.	.	.	.	.	.	.	.	.	.	.	.	.	.	.	.	.	.	.
.	.	.	.	.	8a\	.	16ff#X\	.	16eee\	.	.	.	.	.	.	.	.	.	.	.	.	.	.	.	.	.	.	.	.	.	.	.
.	.	.	.	.	.	.	16ff#X\JJ	.	16eee\JJ	.	.	.	.	.	.	.	.	.	.	.	.	.	.	.	.	.	.	.	.	.	.	.
4G#X\	3	.	4G#X\	.	8b\	.	16gg#X\LL	.	16bb\LL	.	4G#X\	-am	.	4e\	-am	.	4b\	-am	.	4ee\	-am	.	.	.	.	.	.	.	.	.	.	.
.	.	.	.	.	.	.	16gg#X\	.	16eee\	.	.	.	.	.	.	.	.	.	.	.	.	.	.	.	.	.	.	.	.	.	.	.
.	.	.	.	.	8b\J	.	16gg#X\	.	16eee\	.	.	.	.	.	.	.	.	.	.	.	.	.	.	.	.	.	.	.	.	.	.	.
.	.	.	.	.	.	.	16gg#X\JJ	.	16eee\JJ	.	.	.	.	.	.	.	.	.	.	.	.	.	.	.	.	.	.	.	.	.	.	.
!	!	!	!	!	!	!	!	!	!	!	!LO:LB:g=original	!	!	!	!	!	!	!	!	!	!	!	!	!	!	!	!	!	!	!	!	!
=28	=28	=28	=28	=28	=28	=28	=28	=28	=28	=28	=28	=28	=28	=28	=28	=28	=28	=28	=28	=28	=28	=28	=28	=28	=28	=28	=28	=28	=28	=28	=28	=28
*Xtremolo	*	*	*	*	*	*	*	*	*Xtremolo	*	*	*	*	*	*	*	*	*	*	*	*	*	*	*	*	*	*	*	*	*	*	*
8A\L	3_	.	8A\L	.	8cc\L	.	16aa\LL	.	16ccc\LL	.	4A\	in	.	4f\	in	.	4cc\	in	.	4ff\	in	.	2.r	.	2.r	.	2.r	.	2.r	.	2.r	.
.	.	.	.	.	.	.	16aa\	.	16ccc\	.	.	.	.	.	.	.	.	.	.	.	.	.	.	.	.	.	.	.	.	.	.	.
8A\	6	.	8A\	.	8cc\	.	16aa\	.	16fff\	.	.	.	.	.	.	.	.	.	.	.	.	.	.	.	.	.	.	.	.	.	.	.
.	.	.	.	.	.	.	16aa\JJ	.	16fff\JJ	.	.	.	.	.	.	.	.	.	.	.	.	.	.	.	.	.	.	.	.	.	.	.
!	!	!	!	!	!	!	!	!	!LO:LB:g=original	!	!	!	!	!	!	!	!LO:SIC:s=sae-	!	!	!	!	!	!	!	!	!	!	!	!	!	!	!
*	*	*	*	*	*	*	*	*	*tremolo	*	*	*	*	*	*	*	*	*	*	*	*	*	*	*	*	*	*	*	*	*	*	*
8Gn\	3_	.	8Gn\	.	8b\	.	16ggn\LL	.	16bb\LL	.	4Gn\	sae-	.	4e\	sae-	.	4b\	se-	.	4ee\	sae-	.	.	.	.	.	.	.	.	.	.	.
.	.	.	.	.	.	.	16ggn\	.	16bb\	.	.	.	.	.	.	.	.	.	.	.	.	.	.	.	.	.	.	.	.	.	.	.
8G\	6_	.	8G\	.	8b\	.	16ggn\	.	16eee\	.	.	.	.	.	.	.	.	.	.	.	.	.	.	.	.	.	.	.	.	.	.	.
.	.	.	.	.	.	.	16ggn\JJ	.	16eee\	.	.	.	.	.	.	.	.	.	.	.	.	.	.	.	.	.	.	.	.	.	.	.
!	!	!	!	!	!	!	!	!	!	!	!	!	!	!	!	!	!LO:LB:g=original	!	!	!	!	!	!	!	!	!	!	!	!	!	!	!
8Fn\	3_	.	8Fn\	.	8a\	.	16ffn\LL	.	16aa\	.	8F\	-cu-	.	8d\	-cu-	.	8a\	-cu-	.	8dd\	-cu-	.	.	.	.	.	.	.	.	.	.	.
.	.	.	.	.	.	.	16ffn\	.	16aa\	.	.	.	.	.	.	.	.	.	.	.	.	.	.	.	.	.	.	.	.	.	.	.
8F\J	6	.	8F\J	.	8a\J	.	16ffn\	.	16ddd\	.	8F\	-lum	.	8d\	-lum	.	8a\	-lum	.	8dd\	-lum	.	.	.	.	.	.	.	.	.	.	.
.	.	.	.	.	.	.	16ffn\JJ	.	16ddd\JJ	.	.	.	.	.	.	.	.	.	.	.	.	.	.	.	.	.	.	.	.	.	.	.
!LO:LB:g=original	!	!	!	!	!LO:LB:g=original	!	!	!	!	!	!	!	!	!	!	!	!	!	!	!	!	!	!	!	!	!	!	!	!	!	!	!
=29	=29	=29	=29	=29	=29	=29	=29	=29	=29	=29	=29	=29	=29	=29	=29	=29	=29	=29	=29	=29	=29	=29	=29	=29	=29	=29	=29	=29	=29	=29	=29	=29
*	*	*	*	*	*	*	*	*	*Xtremolo	*	*	*	*	*	*	*	*	*	*	*	*	*	*	*	*	*	*	*	*	*	*	*
8E\L	3_	.	8E\L	.	8g\L	.	16ee\LL	.	16gg\LL	.	4E\	mi-	.	4c\	Mi-	.	4g\	mi-	.	4cc\	mi-	.	2.r	.	2.r	.	2.r	.	2.r	.	2.r	.
.	.	.	.	.	.	.	16ee\	.	16gg\	.	.	.	.	.	.	.	.	.	.	.	.	.	.	.	.	.	.	.	.	.	.	.
8E\	6	.	8E\	.	8g\	.	16ee\	.	16ccc\	.	.	.	.	.	.	.	.	.	.	.	.	.	.	.	.	.	.	.	.	.	.	.
.	.	.	.	.	.	.	16ee\JJ	.	16ccc\JJ	.	.	.	.	.	.	.	.	.	.	.	.	.	.	.	.	.	.	.	.	.	.	.
*	*	*	*	*	*	*	*	*	*tremolo	*	*	*	*	*	*	*	*	*	*	*	*	*	*	*	*	*	*	*	*	*	*	*
8D\	3_	.	8D\	.	8f\	.	16dd\LL	.	16ff\LL	.	4D\	-ſe-	.	4B\	-se-	.	4f\	-se-	.	4b\	-ſe-	.	.	.	.	.	.	.	.	.	.	.
.	.	.	.	.	.	.	16dd\	.	16ff\	.	.	.	.	.	.	.	.	.	.	.	.	.	.	.	.	.	.	.	.	.	.	.
8D\	6	.	8D\	.	8f\	.	16dd\	.	16bb\	.	.	.	.	.	.	.	.	.	.	.	.	.	.	.	.	.	.	.	.	.	.	.
.	.	.	.	.	.	.	16dd\JJ	.	16bb\	.	.	.	.	.	.	.	.	.	.	.	.	.	.	.	.	.	.	.	.	.	.	.
8C\	3_	.	8C\	.	8e\	.	16cc\LL	.	16ee\	.	4C\	-ri-	.	4A\	-ri-	.	4e\	-ri-	.	4a\	-ri-	.	.	.	.	.	.	.	.	.	.	.
.	.	.	.	.	.	.	16cc\	.	16ee\	.	.	.	.	.	.	.	.	.	.	.	.	.	.	.	.	.	.	.	.	.	.	.
8C\J	6	.	8C\J	.	8e\J	.	16cc\	.	16aa\	.	.	.	.	.	.	.	.	.	.	.	.	.	.	.	.	.	.	.	.	.	.	.
.	.	.	.	.	.	.	16cc\JJ	.	16aa\JJ	.	.	.	.	.	.	.	.	.	.	.	.	.	.	.	.	.	.	.	.	.	.	.
!	!	!	!LO:LB:g=original	!	!	!	!LO:LB:g=original	!	!	!	!	!	!	!	!	!	!	!	!	!	!	!	!	!	!	!	!	!	!	!	!	!
!	!	!	!	!	!	!	!	!	!	!	!	!	!	!	!	!	!	!	!	!	!	!	!	!	!	!	!	!	!	!	!LO:LB:g=original	!
=30	=30	=30	=30	=30	=30	=30	=30	=30	=30	=30	=30	=30	=30	=30	=30	=30	=30	=30	=30	=30	=30	=30	=30	=30	=30	=30	=30	=30	=30	=30	=30	=30
*	*	*	*	*	*	*	*	*	*Xtremolo	*	*	*	*	*	*	*	*	*	*	*	*	*	*	*	*	*	*	*	*	*	*	*
8BB/L	6_ 3_	.	8BB/L	.	8d\L	.	16b\LL	.	16dd\LL	.	4BB/	-cor-	.	4G/	-cor-	.	4d\	-cor-	.	4g\	-cor-	.	2.r	.	2.r	.	2.r	.	4r	.	4r	.
.	.	.	.	.	.	.	16b\	.	16dd\	.	.	.	.	.	.	.	.	.	.	.	.	.	.	.	.	.	.	.	.	.	.	.
8BB/	.	.	8BB/	.	8d\	.	16b\	.	16gg\	.	.	.	.	.	.	.	.	.	.	.	.	.	.	.	.	.	.	.	.	.	.	.
.	.	.	.	.	.	.	16b\JJ	.	16gg\JJ	.	.	.	.	.	.	.	.	.	.	.	.	.	.	.	.	.	.	.	.	.	.	.
*	*	*	*	*	*	*	*	*	*tremolo	*	*	*	*	*	*	*	*	*	*	*	*	*	*	*	*	*	*	*	*	*	*	*
8GG/	7_ 5_	.	8GG/	.	8f\	.	16g\LL	.	16b\LL	.	4G\	-di-	.	4d\	-di-	.	4f\	-di-	.	4bn\	-di-	.	.	.	.	.	.	.	4dd\	.	4ff\	.
.	.	.	.	.	.	.	16g\	.	16b\	.	.	.	.	.	.	.	.	.	.	.	.	.	.	.	.	.	.	.	.	.	.	.
8GG/	.	.	8GG/	.	8f\J	.	16g\	.	16ff\	.	.	.	.	.	.	.	.	.	.	.	.	.	.	.	.	.	.	.	.	.	.	.
.	.	.	.	.	.	.	16g\JJ	.	16ff\	.	.	.	.	.	.	.	.	.	.	.	.	.	.	.	.	.	.	.	.	.	.	.
8C/	3_	.	8C/	.	8e\L	.	16cc\LL	.	16g\	.	4A\	-a	.	4e\	-a	.	4e\	-a	.	4cc\	-a	.	.	.	.	.	.	.	4cc\	.	4ee\	.
.	.	.	.	.	.	.	16cc\	.	16g\	.	.	.	.	.	.	.	.	.	.	.	.	.	.	.	.	.	.	.	.	.	.	.
8C/J	.	.	8C/J	.	8e\J	.	16cc\	.	16ee\	.	.	.	.	.	.	.	.	.	.	.	.	.	.	.	.	.	.	.	.	.	.	.
.	.	.	.	.	.	.	16cc\JJ	.	16ee\JJ	.	.	.	.	.	.	.	.	.	.	.	.	.	.	.	.	.	.	.	.	.	.	.
!	!	!	!	!	!	!	!	!	!	!	!	!	!	!	!	!	!	!	!	!	!	!	!LO:LB:g=original	!	!	!	!	!	!	!	!	!
=31	=31	=31	=31	=31	=31	=31	=31	=31	=31	=31	=31	=31	=31	=31	=31	=31	=31	=31	=31	=31	=31	=31	=31	=31	=31	=31	=31	=31	=31	=31	=31	=31
!	!	!	!	!	!	!	!	!	!	!	!	!	!	!	!	!	!	!	!	!	!	!	!	!	!	!	!	!	!	!	!	!
*	*	*	*	*	*	*	*	*	*Xtremolo	*	*	*	*	*	*	*	*	*	*	*	*	*	*	*	*	*	*	*	*	*	*	*
8F\L	6_ 3_	.	8F\L	.	8f\L	.	16a\LL	.	16f/LL	.	(4F\	e-	.	4f\	e-	.	4a\	e-	.	4dd\	e-	.	4r	p	4r	.	4r	.	4ff\	.	4aa\	.
.	.	.	.	.	.	.	16a\	.	16f/	.	.	.	.	.	.	.	.	.	.	.	.	.	.	.	.	.	.	.	.	.	.	.
8F\	.	.	8F\	.	8f\	.	16a\	.	16dd/	.	.	.	.	.	.	.	.	.	.	.	.	.	.	.	.	.	.	.	.	.	.	.
.	.	.	.	.	.	.	16a\JJ	.	16dd/JJ	.	.	.	.	.	.	.	.	.	.	.	.	.	.	.	.	.	.	.	.	.	.	.
*	*	*	*	*	*	*	*	*	*tremolo	*	*	*	*	*	*	*	*	*	*	*	*	*	*	*	*	*	*	*	*	*	*	*
8G\	6_ 4_	.	8G\	.	8e\	.	16g\LL	.	16e/LL	.	4G\	.	.	(4e\	.	.	2g\	.	.	4cc\	.	.	4C/	.	4e/	.	4cc\	.	4ee\	.	4gg\	.
.	.	.	.	.	.	.	16g\	.	16e/	.	.	.	.	.	.	.	.	.	.	.	.	.	.	.	.	.	.	.	.	.	.	.
8G\	.	.	8G\	.	8e\J	.	16g\	.	16cc/	.	.	.	.	.	.	.	.	.	.	.	.	.	.	.	.	.	.	.	.	.	.	.
.	.	.	.	.	.	.	16g\	.	16cc/	.	.	.	.	.	.	.	.	.	.	.	.	.	.	.	.	.	.	.	.	.	.	.
8GG/	5_ 3_	.	8GG/	.	8d\L	.	16g\	.	16d/	.	4GG/)	.	.	4d\)	.	.	.	.	.	4b\	.	.	4GG/	.	4g/	.	4dd\	.	4dd\	.	4bb\	.
.	.	.	.	.	.	.	16g\	.	16d/	.	.	.	.	.	.	.	.	.	.	.	.	.	.	.	.	.	.	.	.	.	.	.
8GG/J	.	.	8GG/J	.	8d\J	.	16g\	.	16b/	.	.	.	.	.	.	.	.	.	.	.	.	.	.	.	.	.	.	.	.	.	.	.
.	.	.	.	.	.	.	16g\JJ	.	16b/JJ	.	.	.	.	.	.	.	.	.	.	.	.	.	.	.	.	.	.	.	.	.	.	.
=32	=32	=32	=32	=32	=32	=32	=32	=32	=32	=32	=32	=32	=32	=32	=32	=32	=32	=32	=32	=32	=32	=32	=32	=32	=32	=32	=32	=32	=32	=32	=32	=32
!LO:TX:b:t=uniſono	!	!	!LO:TX:a:t=Solo	!	!	!	!	!	!	!	!	!	!	!	!	!	!	!	!	!	!	!	!	!	!	!	!	!	!	!	!	!
8C\L	.	.	8C'\L	.	4e\	.	4g/	.	4cc\	.	4C/	-jus	.	4e\	-jus	.	4g\	-jus	.	4cc\	-jus	.	4C/	.	4e/	.	4cc\	.	4ee\	.	4ccc\	.
8G'\	.	.	8G'\	.	.	.	.	.	.	.	.	.	.	.	.	.	.	.	.	.	.	.	.	.	.	.	.	.	.	.	.	.
8F#X'\	.	.	8F#X'\	.	4r	.	4r	.	4r	.	4r	.	.	4r	.	.	4r	.	.	4r	.	.	4r	.	4r	.	4r	.	4r	.	4r	.
8G'\	.	.	8G'\	.	.	.	.	.	.	.	.	.	.	.	.	.	.	.	.	.	.	.	.	.	.	.	.	.	.	.	.	.
8A'\	.	.	8A'\	.	4r	.	4r	.	4r	.	4r	.	.	4r	.	.	4r	.	.	4r	.	.	4r	.	4r	.	4r	.	4r	.	4r	.
8G'\J	.	.	8G'\J	.	.	.	.	.	.	.	.	.	.	.	.	.	.	.	.	.	.	.	.	.	.	.	.	.	.	.	.	.
!	!	!	!	!	!	!	!	!	!LO:LB:g=original	!	!	!	!	!	!	!	!	!	!	!LO:LB:g=original	!	!	!	!	!	!	!	!	!	!	!	!
=33	=33	=33	=33	=33	=33	=33	=33	=33	=33	=33	=33	=33	=33	=33	=33	=33	=33	=33	=33	=33	=33	=33	=33	=33	=33	=33	=33	=33	=33	=33	=33	=33
!	!	!	!	!	!LO:TX:a:t=1	!	!LO:TX:a:t=1	!	!LO:TX:a:t=1	!	!LO:TX:a:t=2	!	!	!LO:TX:a:t=1	!	!	!LO:TX:a:t=5	!	!	!	!	!	!LO:TX:a:t=8	!	!LO:TX:a:t=8	!	!LO:TX:a:t=8	!	!LO:TX:a:t=2	!	!LO:TX:a:t=2	!
8E'\L	.	.	8E\L	.	2.r	.	2.r	.	2.r	.	2.r	.	.	2.r	.	.	2.r	.	.	2.r	.	.	2.r	.	2.r	.	2.r	.	2.r	.	2.r	.
8F'\	.	.	8F\	.	.	.	.	.	.	.	.	.	.	.	.	.	.	.	.	.	.	.	.	.	.	.	.	.	.	.	.	.
8C#X'\	.	.	8C#X\	.	.	.	.	.	.	.	.	.	.	.	.	.	.	.	.	.	.	.	.	.	.	.	.	.	.	.	.	.
8D'\	.	.	8D\	.	.	.	.	.	.	.	.	.	.	.	.	.	.	.	.	.	.	.	.	.	.	.	.	.	.	.	.	.
8AA'\	.	.	8AA\	.	.	.	.	.	.	.	.	.	.	.	.	.	.	.	.	.	.	.	.	.	.	.	.	.	.	.	.	.
8BB'\J	.	.	8BB\J	.	.	.	.	.	.	.	.	.	.	.	.	.	.	.	.	.	.	.	.	.	.	.	.	.	.	.	.	.
!LO:LB:g=original	!	!	!	!	!	!	!	!	!	!	!	!	!	!LO:LB:g=original	!	!	!	!	!	!	!	!	!	!	!	!	!	!	!	!	!	!
=34	=34	=34	=34	=34	=34	=34	=34	=34	=34	=34	=34	=34	=34	=34	=34	=34	=34	=34	=34	=34	=34	=34	=34	=34	=34	=34	=34	=34	=34	=34	=34	=34
!	!	!	!	!	!	!	!	!	!	!	!	!	!	!	!	!	!	!	!	!LO:TX:a:i:t=dol	!	!	!	!	!	!	!	!	!	!	!	!
!	!	!	!	!	!	!	!	!	!	!LO:DY:b	!	!	!	!	!	!	!	!	!	!	!	!	!	!	!	!	!	!	!	!	!	!
!	!	!	!	!	!	!	!	!LO:DY:b	!	!	!	!	!	!	!	!	!	!	!	!	!	!	!	!	!	!	!	!	!	!	!	!
!	!	!	!	!	!	!LO:DY:b:t=p.	!	!	!	!	!	!	!	!	!	!	!	!	!	!	!	!	!	!	!	!	!	!	!	!	!	!
!	!	!LO:DY:b	!	!LO:DY:b	!	!	!	!	!	!	!	!	!	!	!	!	!	!	!	!	!	!	!	!	!	!	!	!	!	!	!	!
4C/	.	p	4C\	p	4c\	p	(8c/L	p	(8e/L	p	2.r	.	.	4c\	Glo-	.	2.r	.	.	4ee\	Glo-	.	2.r	.	2.r	.	2.r	.	2.r	.	2.r	.
.	.	.	.	.	.	.	8G/)	.	8G/)	.	.	.	.	.	.	.	.	.	.	.	.	.	.	.	.	.	.	.	.	.	.	.
4r	.	.	4r	.	4r	.	(8B/	.	(8d/	.	.	.	.	4B\	-ri-	.	.	.	.	4dd\	-ri-	.	.	.	.	.	.	.	.	.	.	.
.	.	.	.	.	.	.	8G/)	.	8G/)	.	.	.	.	.	.	.	.	.	.	.	.	.	.	.	.	.	.	.	.	.	.	.
4r	.	.	4r	.	4r	.	8c/	.	(8e/	.	.	.	.	4c\	-a	.	.	.	.	4ee\	-a	.	.	.	.	.	.	.	.	.	.	.
.	.	.	.	.	.	.	8G/J	.	8G/J)	.	.	.	.	.	.	.	.	.	.	.	.	.	.	.	.	.	.	.	.	.	.	.
!	!	!	!LO:LB:g=original	!	!	!	!	!	!	!	!	!	!	!	!	!	!	!	!	!	!	!	!	!	!	!	!	!	!	!	!	!
=35	=35	=35	=35	=35	=35	=35	=35	=35	=35	=35	=35	=35	=35	=35	=35	=35	=35	=35	=35	=35	=35	=35	=35	=35	=35	=35	=35	=35	=35	=35	=35	=35
4G\	.	.	4G\	.	4g\	.	8d/L	.	8f/L	.	4r	.	.	4d\	Pa-	.	2.r	.	.	4ff\	Pa-	.	2.r	.	2.r	.	2.r	.	4r	.	4r	.
.	.	.	.	.	.	.	8G/J	.	8G/J	.	.	.	.	.	.	.	.	.	.	.	.	.	.	.	.	.	.	.	.	.	.	.
4r	.	.	4r	.	4r	.	8B/L	.	8d/L	.	8.G\	Glo-	.	4B\	-tri	.	.	.	.	4dd\	-tri	.	.	.	.	.	.	.	4b\	.	4dd\	.
.	.	.	.	.	.	.	8G/	.	8G/	.	.	.	.	.	.	.	.	.	.	.	.	.	.	.	.	.	.	.	.	.	.	.
.	.	.	.	.	.	.	.	.	.	.	16G\	-ri-	.	.	.	.	.	.	.	.	.	.	.	.	.	.	.	.	.	.	.	.
4r	.	.	4r	.	4r	.	8B/	.	8d/	.	4GG/	-a	.	4r	.	.	.	.	.	4r	.	.	.	.	.	.	.	.	4cc\	.	4ee\	.
.	.	.	.	.	.	.	8G/J	.	8G/J	.	.	.	.	.	.	.	.	.	.	.	.	.	.	.	.	.	.	.	.	.	.	.
!	!	!	!	!	!LO:LB:g=original	!	!	!	!	!	!LO:LB:g=original	!	!	!	!	!	!	!	!	!	!	!	!	!	!	!	!	!	!	!	!	!
=36	=36	=36	=36	=36	=36	=36	=36	=36	=36	=36	=36	=36	=36	=36	=36	=36	=36	=36	=36	=36	=36	=36	=36	=36	=36	=36	=36	=36	=36	=36	=36	=36
!	!	!	!	!	!	!	!	!	!	!	!LO:TX:a:t=1	!	!	!	!	!	!	!	!	!	!	!	!	!	!	!	!	!	!	!	!	!
4GG/	.	.	4GG/	.	4G/	.	8d/L	.	8f/L	.	2.r	.	.	(4d\	et	.	2.r	.	.	4ff\	et	.	2.r	.	2.r	.	2.r	.	4dd\	.	4ff\	.
.	.	.	.	.	.	.	8G/	.	8G/	.	.	.	.	.	.	.	.	.	.	.	.	.	.	.	.	.	.	.	.	.	.	.
4r	.	.	4r	.	4r	.	8c/	.	8e/	.	.	.	.	4c\	.	.	.	.	.	4ee\	.	.	.	.	.	.	.	.	4r	.	4r	.
.	.	.	.	.	.	.	8G/	.	8G/	.	.	.	.	.	.	.	.	.	.	.	.	.	.	.	.	.	.	.	.	.	.	.
4r	.	.	4r	.	4r	.	8d/	.	8f/	.	.	.	.	4d\)	.	.	.	.	.	4ff\	.	.	.	.	.	.	.	.	4r	.	4r	.
.	.	.	.	.	.	.	8G/J	.	8G/J	.	.	.	.	.	.	.	.	.	.	.	.	.	.	.	.	.	.	.	.	.	.	.
!	!	!	!	!	!	!	!LO:LB:g=original	!	!	!	!	!	!	!	!	!	!	!	!	!	!	!	!	!	!	!	!	!	!LO:LB:g=original	!	!	!
=37	=37	=37	=37	=37	=37	=37	=37	=37	=37	=37	=37	=37	=37	=37	=37	=37	=37	=37	=37	=37	=37	=37	=37	=37	=37	=37	=37	=37	=37	=37	=37	=37
4C/	.	.	4C/	.	4c\	.	8e/L	.	(8g/L	.	4r	.	.	8e\	fi-	.	2.r	.	.	8gg\	Fi-	.	2.r	.	2.r	.	2.r	.	4r	.	4r	.
.	.	.	.	.	.	.	8G/J	.	8G/J)	.	.	.	.	8e\	-li-	.	.	.	.	8gg\	-li-	.	.	.	.	.	.	.	.	.	.	.
4r	.	.	4r	.	4r	.	(8c/L	.	(8e/L	.	8.c\	Glo-	.	4c\	-o	.	.	.	.	4ee\	-o	.	.	.	.	.	.	.	4cc\	.	4ee\	.
.	.	.	.	.	.	.	8G/)	.	8G/	.	.	.	.	.	.	.	.	.	.	.	.	.	.	.	.	.	.	.	.	.	.	.
.	.	.	.	.	.	.	.	.	.	.	16c\	-ri-	.	.	.	.	.	.	.	.	.	.	.	.	.	.	.	.	.	.	.	.
4r	.	.	4r	.	4r	.	8c/	.	8e/	.	4C/	-a	.	4r	.	.	.	.	.	4r	.	.	.	.	.	.	.	.	4dd\	.	4ff\	.
.	.	.	.	.	.	.	8G/)J	.	8G/)J	.	.	.	.	.	.	.	.	.	.	.	.	.	.	.	.	.	.	.	.	.	.	.
=38	=38	=38	=38	=38	=38	=38	=38	=38	=38	=38	=38	=38	=38	=38	=38	=38	=38	=38	=38	=38	=38	=38	=38	=38	=38	=38	=38	=38	=38	=38	=38	=38
4E\	.	.	4E\	.	4c\	.	8c/L	.	8e/L	.	2C/	et	.	(4g\	et	.	(4e\	et	.	(4cc\	et	.	2.r	.	2.r	.	2.r	.	4ee\	.	4gg\	.
.	.	.	.	.	.	.	8G/	.	8G/	.	.	.	.	.	.	.	.	.	.	.	.	.	.	.	.	.	.	.	.	.	.	.
4r	.	.	4r	.	4r	.	8c/	.	8e/	.	.	.	.	4e\)	spi-	.	4g\)	.	.	4ee\)	.	.	.	.	.	.	.	.	4r	.	4r	.
.	.	.	.	.	.	.	8G/J	.	8G/J	.	.	.	.	.	.	.	.	.	.	.	.	.	.	.	.	.	.	.	.	.	.	.
4r	.	.	4r	.	4r	.	8e/L	.	8g/L	.	4E/	spi-	.	4c\	.	.	4g\	spi-	.	4gg\	Spi-	.	.	.	.	.	.	.	4r	.	4r	.
.	.	.	.	.	.	.	8G/J	.	8G/J	.	.	.	.	.	.	.	.	.	.	.	.	.	.	.	.	.	.	.	.	.	.	.
!	!	!	!	!	!	!	!	!	!	!	!	!	!	!	!	!	!LO:LB:g=original	!	!	!	!	!	!	!	!	!	!	!	!	!	!	!
=39	=39	=39	=39	=39	=39	=39	=39	=39	=39	=39	=39	=39	=39	=39	=39	=39	=39	=39	=39	=39	=39	=39	=39	=39	=39	=39	=39	=39	=39	=39	=39	=39
!	!	!	!	!	!	!	!	!	!	!	!	!	!	!	!	!	!	!	!	!	!	!	!	!	!	!	!	!	!LO:TX:a:t=1	!	!	!
4F\	.	.	4F\	.	4f\	.	4f/	.	8A/L	.	4F\	-ri-	.	4f\	-ri-	.	4a\	-ri-	.	8gg#X\L	-ri-	.	2.r	.	2.r	.	2.r	.	2.r	.	2.r	.
.	.	.	.	.	.	.	.	.	8a/	.	.	.	.	.	.	.	.	.	.	8aa\J	.	.	.	.	.	.	.	.	.	.	.	.
4r	.	.	4r	.	4r	.	8e/L	.	8g#X/	.	4D\	-tu-	.	4d\	-tu-	.	4f\	-tu-	.	8ee\L	-tu-	.	.	.	.	.	.	.	.	.	.	.
.	.	.	.	.	.	.	8f/	.	8a/J	.	.	.	.	.	.	.	.	.	.	8ff\J	.	.	.	.	.	.	.	.	.	.	.	.
!	!	!	!	!	!	!	!	!	!	!	!	!	!	!	!	!	!LO:SIC:s=-i	!	!	!	!	!	!	!	!	!	!	!	!	!	!	!
!	!	!	!	!	!	!	!	!	!	!	!	!	!	!	!	!	!	!	!	!LO:LB:g=original	!	!	!	!	!	!	!	!	!	!	!	!
4r	.	.	4r	.	4r	.	8a/	.	8dd\L	.	4F\	-i	.	4a\	-i	.	4f\	-j	.	8a\L	-i	.	.	.	.	.	.	.	.	.	.	.
.	.	.	.	.	.	.	8f/J	.	8aa\J	.	.	.	.	.	.	.	.	.	.	8dd\J	.	.	.	.	.	.	.	.	.	.	.	.
!	!	!	!	!	!	!	!	!	!LO:LB:g=original	!	!	!	!	!LO:LB:g=original	!	!	!	!	!	!	!	!	!	!	!	!	!	!	!	!	!	!
=40	=40	=40	=40	=40	=40	=40	=40	=40	=40	=40	=40	=40	=40	=40	=40	=40	=40	=40	=40	=40	=40	=40	=40	=40	=40	=40	=40	=40	=40	=40	=40	=40
!	!	!	!	!	!	!	!	!	!	!	!	!	!	!LO:SIC:s=San-	!	!	!	!	!	!	!	!	!	!	!	!	!	!	!	!	!	!
4G\	.	.	4G\	.	2g\	.	2e/	.	2ccT\	.	2G\	San-	.	(2e\	Sa-	.	2.g\	San-	.	(2cc\	San-	.	2.r	.	2.r	.	2.r	.	4r	.	4r	.
4r	.	.	4r	.	.	.	.	.	.	.	.	.	.	.	.	.	.	.	.	.	.	.	.	.	.	.	.	.	4cc\	.	4ee\	.
.	.	.	.	.	.	.	.	.	16qqb/LL	.	.	.	.	.	.	.	.	.	.	.	.	.	.	.	.	.	.	.	.	.	.	.
.	.	.	.	.	.	.	.	.	16qqcc/JJ	.	.	.	.	.	.	.	.	.	.	.	.	.	.	.	.	.	.	.	.	.	.	.
4GG/	.	.	4GG/	.	4g\	.	8g/L	.	8ee\L	.	4GG/	.	.	4d\)	.	.	.	.	.	4b\)	.	.	.	.	.	.	.	.	8ee\L	.	8gg\L	.
.	.	.	.	.	.	.	8f/J	.	8dd\J	.	.	.	.	.	.	.	.	.	.	.	.	.	.	.	.	.	.	.	8dd\J	.	8ff\J	.
!	!	!	!	!	!	!	!	!	!	!	!	!	!	!	!	!	!	!	!	!	!	!	!	!	!	!	!	!	!	!	!LO:LB:g=original	!
=41	=41	=41	=41	=41	=41	=41	=41	=41	=41	=41	=41	=41	=41	=41	=41	=41	=41	=41	=41	=41	=41	=41	=41	=41	=41	=41	=41	=41	=41	=41	=41	=41
*	*	*	*	*	*tremolo	*	*	*	*	*	*	*	*	*	*	*	*	*	*	*	*	*	*	*	*	*	*	*	*	*	*	*
!	!	!	!	!	!	!	!	!	!	!	!	!	!	!	!	!	!	!	!	!	!	!	!LO:TX:t=P:problem=niejednoznaczny zapis [diminuendo / akcent] 	!	!	!	!	!	!	!	!	!
!	!	!	!	!	!	!	!	!	!	!	!	!	!	!	!	!	!	!	!	!	!	!LO:DY:b	!	!	!	!	!	!	!	!	!	!
!	!	!	!	!	!	!	!	!	!	!	!	!	!LO:DY:b	!	!	!	!	!	!	!	!	!	!	!	!	!	!	!	!	!	!	!
!	!	!	!	!	!	!	!	!	!	!LO:DY:b	!	!	!	!	!	!	!	!	!	!	!	!	!	!	!	!	!	!	!	!	!	!
!	!	!	!	!	!	!	!	!LO:DY:b:t=fo	!	!	!	!	!	!	!	!	!	!	!	!	!	!	!	!	!	!	!	!	!	!	!	!
!	!	!	!	!	!	!LO:DY:b	!	!	!	!	!	!	!	!	!	!	!	!	!	!	!	!	!	!	!	!	!	!	!	!	!	!
!	!	!LO:DY:b	!	!LO:DY:b	!	!	!	!	!	!	!	!	!	!	!	!	!	!	!	!	!	!	!	!	!	!	!	!	!	!	!	!
4C/	3_	f	4C/	f	8c\L	f	8G/ 8eL	f	8cc\	f	4C/	-cto	f	4e\	-cto	.	4g\	-cto	.	4cc\	-cto	f	8C/L	f >	8e/L	.	8cc\L	.	4cc\	.	4ee\	f
.	.	.	.	.	8c\	.	8G/ 8e	.	4ccc\	.	.	.	.	.	.	.	.	.	.	.	.	.	16C/L	.	16e/L	.	16cc\L	.	.	.	.	.
.	.	.	.	.	.	.	.	.	.	.	.	.	.	.	.	.	.	.	.	.	.	.	16C/JJ	.	16e/JJ	.	16cc\JJ	.	.	.	.	.
4C/	.	.	4C/	.	8c\	.	8G/ 8e	.	.	.	4c\	Si-	.	4g\	Si-	.	4cc\	Si-	.	4ee\	si-	.	4C/	]	4e/	.	4cc\	.	8r	.	8r	.
.	.	.	.	.	8c\	.	8G/ 8e	.	8bb\L	.	.	.	.	.	.	.	.	.	.	.	.	.	.	.	.	.	.	.	8cc\L	.	8ee\L	.
!	!	!	!	!	!	!	!	!	!	!	!	!	!	!	!	!	!	!	!	!	!	!	!	!	!	!	!	!	!	!	!	!
4C/	.	.	4C/	.	8c\	.	8G/ 8e	.	8aaS\	.	4c\	-cut	.	4g\	-cut	.	4cc\	-cut	.	4ff\	-cut	.	4r	.	4r	.	4r	.	8cc\	.	8ee\	.
.	.	.	.	.	8c\J	.	8G/ 8eJ	.	8gg\J	.	.	.	.	.	.	.	.	.	.	.	.	.	.	.	.	.	.	.	8cc\J	.	8ee\J	.
!LO:LB:g=original	!	!	!	!	!	!	!	!	!	!	!	!	!	!	!	!	!	!	!	!	!	!	!	!	!	!	!	!	!	!	!	!
=42	=42	=42	=42	=42	=42	=42	=42	=42	=42	=42	=42	=42	=42	=42	=42	=42	=42	=42	=42	=42	=42	=42	=42	=42	=42	=42	=42	=42	=42	=42	=42	=42
!	!	!	!	!	!	!	!LO:TX:t=P:problem=1 półnuta	!	!	!	!	!	!	!	!	!	!	!	!	!	!	!	!	!	!	!	!	!	!	!	!	!
4C/	.	.	4C/	.	8c\L	.	8G/ 8eL	.	8ff\L	.	2c\	e-	.	2g\	e-	.	2cc\	e-	.	2ee\	e-	.	2.r	.	2.r	.	2.r	.	4cc\	.	4ee\	.
.	.	.	.	.	8c\	.	8G/ 8e	.	8ee'\	.	.	.	.	.	.	.	.	.	.	.	.	.	.	.	.	.	.	.	.	.	.	.
4C/	.	.	4C/	.	8c\	.	8G/ 8e	.	8dd'\	.	.	.	.	.	.	.	.	.	.	.	.	.	.	.	.	.	.	.	4cc\	.	4ee\	.
.	.	.	.	.	8c\	.	8G/ 8e	.	8cc'\	.	.	.	.	.	.	.	.	.	.	.	.	.	.	.	.	.	.	.	.	.	.	.
4C/	.	.	4C/	.	8c\	.	8G/ 8e	.	8b'\	.	4C/	-rat	.	4g\	-rat	.	4cc\	-rat	.	4ee\	-rat	.	.	.	.	.	.	.	4cc\	.	4ee\	.
.	.	.	.	.	8c\J	.	8G/ 8eJ	.	8a'\J	.	.	.	.	.	.	.	.	.	.	.	.	.	.	.	.	.	.	.	.	.	.	.
=43	=43	=43	=43	=43	=43	=43	=43	=43	=43	=43	=43	=43	=43	=43	=43	=43	=43	=43	=43	=43	=43	=43	=43	=43	=43	=43	=43	=43	=43	=43	=43	=43
!	!	!	!	!	!	!	!	!	!	!	!	!	!	!	!	!	!	!	!	!	!	!	!	!	!	!	!	!	!	!	!	!
*	*	*	*	*	*Xtremolo	*	*Xtremolo	*	*	*	*	*	*	*	*	*	*	*	*	*	*	*	*	*	*	*	*	*	*	*	*	*
8GG/L	.	.	8GG/L	.	8G'/L	.	8G/L 8f	.	8g/L	.	2G\	in	.	2g\	in	.	2dd\	in	.	2ff\	in	.	4GG/	.	8g/L	.	8dd\L	.	2.dd^\	.	2.ff^\	.
8G\	7_ 5_	.	8G\	.	8G'/J	.	8G/J 8f	.	8gg\J	.	.	.	.	.	.	.	.	.	.	.	.	.	.	.	16g/L	.	16dd\L	.	.	.	.	.
.	.	.	.	.	.	.	.	.	.	.	.	.	.	.	.	.	.	.	.	.	.	.	.	.	16g/JJ	.	16dd\JJ	.	.	.	.	.
!	!	!	!	!	!	!	!	!LO:HP:b	!	!	!	!	!	!	!	!	!	!	!	!	!	!	!	!	!	!	!	!	!	!	!	!
8G\	.	.	8G\	.	8F#X'/L	.	16f#X/LL	<	16ff#X\LL	.	.	.	.	.	.	.	.	.	.	.	.	.	4r	.	8g/L	.	8dd\L	.	.	.	.	.
.	.	.	.	.	.	.	16f#/	.	16ff#X\	.	.	.	.	.	.	.	.	.	.	.	.	.	.	.	.	.	.	.	.	.	.	.
8G\	.	.	8G\	.	8G'/	.	16g/	.	16gg\	.	.	.	.	.	.	.	.	.	.	.	.	.	.	.	8g/	.	8dd\	.	.	.	.	.
.	.	.	.	.	.	.	16g/JJ	.	16gg\	.	.	.	.	.	.	.	.	.	.	.	.	.	.	.	.	.	.	.	.	.	.	.
8G\	.	.	8G\	.	8G#X'/	.	16g#X/LL	.	16gg#X\	.	4G\	prin-	.	4g\	prin-	.	4dd\	prin-	.	4ff\	prin-	.	4r	.	8g/	.	8dd\	.	.	.	.	.
.	.	.	.	.	.	.	16g#/	.	16gg#X\	.	.	.	.	.	.	.	.	.	.	.	.	.	.	.	.	.	.	.	.	.	.	.
8G\J	.	.	8G\J	.	8A'/J	.	16a/	.	16aa\	.	.	.	.	.	.	.	.	.	.	.	.	.	.	.	8g/J	.	8dd\J	.	.	.	.	.
.	.	.	.	.	.	.	16a/JJ	[[	16aa\JJ	.	.	.	.	.	.	.	.	.	.	.	.	.	.	.	.	.	.	.	.	.	.	.
!	!	!	!	!	!	!	!LO:LB:g=original	!	!	!	!LO:LB:g=original	!	!	!	!	!	!	!	!	!	!	!	!	!	!	!	!	!	!	!	!	!
=44	=44	=44	=44	=44	=44	=44	=44	=44	=44	=44	=44	=44	=44	=44	=44	=44	=44	=44	=44	=44	=44	=44	=44	=44	=44	=44	=44	=44	=44	=44	=44	=44
*tremolo	*	*	*tremolo	*	*	*	*	*	*	*	*	*	*	*	*	*	*	*	*	*	*	*	*	*	*	*	*	*	*	*	*	*
8G\L	.	.	8G\L	.	8B-X'\L	.	16b-X\LL	.	16bb-X\LL	.	4G\	-ci-	.	4g\	-ci-	.	4dd\	-ci-	.	4ff\	-ci-	.	2.r	.	8g/	.	8dd\	.	4dd\	.	4ff\	.
.	.	.	.	.	.	.	16b-\	.	16bb-X\	.	.	.	.	.	.	.	.	.	.	.	.	.	.	.	.	.	.	.	.	.	.	.
8G\	.	.	8G\	.	8Bn'\	.	16bn\	.	16bbn\	.	.	.	.	.	.	.	.	.	.	.	.	.	.	.	8r	.	8r	.	.	.	.	.
.	.	.	.	.	.	.	16b\JJ	.	16bbn\	.	.	.	.	.	.	.	.	.	.	.	.	.	.	.	.	.	.	.	.	.	.	.
8G\	.	.	8G\	.	8c'\	.	16cc\LL	.	16ccc\	.	4G\	-pi-	.	4g\	-pi-	.	4dd\	-pi-	.	4ff\	-pi-	.	.	.	8g/	.	8dd\	.	4dd\	.	4ff\	.
.	.	.	.	.	.	.	16cc\	.	16ccc\	.	.	.	.	.	.	.	.	.	.	.	.	.	.	.	.	.	.	.	.	.	.	.
8G\	.	.	8G\	.	8c#X'\	.	16cc#X\	.	16ccc#X\	.	.	.	.	.	.	.	.	.	.	.	.	.	.	.	8r	.	8r	.	.	.	.	.
.	.	.	.	.	.	.	16cc#\JJ	.	16ccc#X\	.	.	.	.	.	.	.	.	.	.	.	.	.	.	.	.	.	.	.	.	.	.	.
8G\	.	.	8G\	.	8d'\	.	16dd\LL	.	16ddd\	.	4G\	-o	.	4g\	-o	.	4dd\	-o	.	4ff\	-o	.	.	.	8g/	.	8dd\	.	4dd\	.	4ff\	.
.	.	.	.	.	.	.	16dd\	.	16ddd\	.	.	.	.	.	.	.	.	.	.	.	.	.	.	.	.	.	.	.	.	.	.	.
8G\J	.	.	8G\J	.	8d#X'\J	.	16dd#X\	.	16ddd#X\	.	.	.	.	.	.	.	.	.	.	.	.	.	.	.	8r	.	8r	.	.	.	.	.
.	.	.	.	.	.	.	16dd#\JJ	.	16ddd#X\JJ	.	.	.	.	.	.	.	.	.	.	.	.	.	.	.	.	.	.	.	.	.	.	.
!	!	!	!	!	!LO:LB:g=original	!	!	!	!LO:LB:g=original	!	!	!	!	!	!	!	!	!	!	!	!	!	!	!	!	!	!	!	!	!	!	!
!	!	!	!	!	!	!	!	!	!	!	!	!	!	!	!	!	!	!	!	!	!	!	!	!	!LO:LB:g=original	!	!LO:LB:g=original	!	!	!	!	!
=45	=45	=45	=45	=45	=45	=45	=45	=45	=45	=45	=45	=45	=45	=45	=45	=45	=45	=45	=45	=45	=45	=45	=45	=45	=45	=45	=45	=45	=45	=45	=45	=45
!	!	!	!	!	!	!	!	!	!	!	!	!	!	!	!	!	!	!	!	!	!	!	!	!	!	!	!	!	!	!	!	!
4C\	.	.	4C/	.	8e\L	.	8ee\L	.	8eee\	.	4C/	Et	.	4g\	et	.	4cc\	et	.	4ee\	Et	.	8C/L	.	8e/L	.	8cc\L	.	4cc\	.	4ee\	.
.	.	.	.	.	8c\J	.	8G/J 8e	.	4ccc^\	.	.	.	.	.	.	.	.	.	.	.	.	.	16C/L	.	16e/L	.	16cc\L	.	.	.	.	.
.	.	.	.	.	.	.	.	.	.	.	.	.	.	.	.	.	.	.	.	.	.	.	16C/JJ	.	16e/JJ	.	16cc\JJ	.	.	.	.	.
*	*	*	*	*	*tremolo	*	*tremolo	*	*	*	*	*	*	*	*	*	*	*	*	*	*	*	*	*	*	*	*	*	*	*	*	*
4C\	.	.	4C/	.	8c\L	.	8G/ 8eL	.	.	.	4E/	nunc	.	4g\	nunc	.	4cc\	nunc	.	4ee\	nunc	.	4C/	.	4e/	.	4cc\	.	8r	.	8r	.
.	.	.	.	.	8c\	.	8G/ 8e	.	8bb\L	.	.	.	.	.	.	.	.	.	.	.	.	.	.	.	.	.	.	.	8cc\L	.	8ee\L	.
4C\	.	.	4C/	.	8c\	.	8G/ 8e	.	8aa\	.	4G/	et	.	4g\	et	.	4cc\	et	.	4ee\	et	.	4r	.	4r	.	4r	.	8cc\	.	8ee\	.
.	.	.	.	.	8c\J	.	8G/ 8eJ	.	8gg\J	.	.	.	.	.	.	.	.	.	.	.	.	.	.	.	.	.	.	.	8cc\J	.	8ee\J	.
!	!	!	!	!	!	!	!	!	!	!	!	!	!	!	!	!	!LO:LB:g=original	!	!	!	!	!	!	!	!	!	!	!	!	!	!	!
!	!	!	!	!	!	!	!	!	!	!	!	!	!	!	!	!	!	!	!	!	!	!	!LO:LB:g=original	!	!	!	!	!	!	!	!	!
=46	=46	=46	=46	=46	=46	=46	=46	=46	=46	=46	=46	=46	=46	=46	=46	=46	=46	=46	=46	=46	=46	=46	=46	=46	=46	=46	=46	=46	=46	=46	=46	=46
!	!	!	!	!	!	!	!	!	!	!	!	!	!	!	!	!	!	!	!	!	!	!	!	!	!	!	!	!	!	!	!	!
4C\	.	.	4C/	.	8c\L	.	8G/ 8eL	.	8ffS\L	.	2c\	Sem-	.	2g\	sem-	.	2cc\	sem-	.	2ee\	sem-	.	2.r	.	2.r	.	2.r	.	4cc\	.	4ee\	.
.	.	.	.	.	8c\	.	8G/ 8e	.	8ee\	.	.	.	.	.	.	.	.	.	.	.	.	.	.	.	.	.	.	.	.	.	.	.
!	!	!	!	!	!	!	!	!	!	!	!	!	!	!	!	!	!	!	!	!	!	!	!	!	!	!	!	!	!	!	!	!
4C\	.	.	4C/	.	8c\	.	8G/ 8e	.	8ddS\	.	.	.	.	.	.	.	.	.	.	.	.	.	.	.	.	.	.	.	4cc\	.	4ee\	.
.	.	.	.	.	8c\	.	8G/ 8e	.	8cc\	.	.	.	.	.	.	.	.	.	.	.	.	.	.	.	.	.	.	.	.	.	.	.
!	!	!	!	!	!	!	!	!	!	!	!	!	!	!	!	!	!	!	!	!	!	!	!	!	!	!	!	!	!	!	!	!
4C\	.	.	4C/	.	8c\	.	8G/ 8e	.	8bS\	.	4C/	-per	.	4g\	-per	.	4cc\	-per	.	4ee\	-per	.	.	.	.	.	.	.	4cc\	.	4ee\	.
.	.	.	.	.	8c\J	.	8G/ 8eJ	.	8a\J	.	.	.	.	.	.	.	.	.	.	.	.	.	.	.	.	.	.	.	.	.	.	.
!	!	!	!	!	!	!	!	!	!	!	!	!	!	!LO:LB:g=original	!	!	!	!	!	!LO:LB:g=original	!	!	!	!	!	!	!	!	!	!	!	!
=47	=47	=47	=47	=47	=47	=47	=47	=47	=47	=47	=47	=47	=47	=47	=47	=47	=47	=47	=47	=47	=47	=47	=47	=47	=47	=47	=47	=47	=47	=47	=47	=47
!	!	!	!	!	!	!	!	!	!	!	!	!	!	!	!	!	!	!	!	!	!	!	!	!	!	!	!	!	!	!	!	!
*	*	*	*	*	*	*	*Xtremolo	*	*	*	*	*	*	*	*	*	*	*	*	*	*	*	*	*	*	*	*	*	*	*	*	*
8GG/L	.	.	8GG/L	.	8G/L	.	8G/L 8f	.	8g/L	.	(4G\	et	.	2g\	et	.	2dd\	et	.	2ff\	et	.	4GG/	.	8g/L	.	8dd\L	.	2.dd\	.	2.ff\	.
8G\J	7_ 5_	.	8G\	.	8G'/J	.	8G/J 8f	.	8gg\J	.	.	.	.	.	.	.	.	.	.	.	.	.	.	.	16g/L	.	16dd\L	.	.	.	.	.
.	.	.	.	.	.	.	.	.	.	.	.	.	.	.	.	.	.	.	.	.	.	.	.	.	16g/JJ	.	16dd\JJ	.	.	.	.	.
8G\L	.	.	8G\	.	8F#X'/L	.	16f#X/LL	.	16ff#X\LL	.	4BB/)	.	.	.	.	.	.	.	.	.	.	.	4r	.	8g/L	.	8dd\L	.	.	.	.	.
.	.	.	.	.	.	.	16f#/	.	16ff#X\	.	.	.	.	.	.	.	.	.	.	.	.	.	.	.	.	.	.	.	.	.	.	.
8G\	.	.	8G\	.	8G'/	.	16g/	.	16gg\	.	.	.	.	.	.	.	.	.	.	.	.	.	.	.	8g/	.	8dd\	.	.	.	.	.
.	.	.	.	.	.	.	16g/JJ	.	16gg\	.	.	.	.	.	.	.	.	.	.	.	.	.	.	.	.	.	.	.	.	.	.	.
8G\	.	.	8G\	.	8G#X'/	.	16g#X/LL	.	16gg#X\	.	4D/	in	.	4g\	in	.	4dd\	in	.	4ff\	in	.	4r	.	8g/	.	8dd\	.	.	.	.	.
.	.	.	.	.	.	.	16g#/	.	16gg#X\	.	.	.	.	.	.	.	.	.	.	.	.	.	.	.	.	.	.	.	.	.	.	.
8G\J	.	.	8G\J	.	8A'/J	.	16a/	.	16aa\	.	.	.	.	.	.	.	.	.	.	.	.	.	.	.	8g/J	.	8dd\J	.	.	.	.	.
.	.	.	.	.	.	.	16a/JJ	.	16aa\JJ	.	.	.	.	.	.	.	.	.	.	.	.	.	.	.	.	.	.	.	.	.	.	.
!	!	!	!	!	!	!	!LO:LB:g=original	!	!	!	!	!	!	!	!	!	!	!	!	!	!	!	!	!	!	!	!	!	!LO:LB:g=original	!	!	!
=48	=48	=48	=48	=48	=48	=48	=48	=48	=48	=48	=48	=48	=48	=48	=48	=48	=48	=48	=48	=48	=48	=48	=48	=48	=48	=48	=48	=48	=48	=48	=48	=48
!	!	!	!LO:TX:t=P:problem=1 półnuta	!	!	!	!	!	!	!	!	!	!	!	!	!	!	!	!	!	!	!	!	!	!	!	!	!	!	!	!	!
8G\L	.	.	8G\L	.	8B-X'\L	.	16b-X\LL	.	16bb-X\LL	.	4.G\	sae-	.	4.g\	sae-	.	4.dd\	sae-	.	4.ff\	sae-	.	2.r	.	8g/	.	8dd\	.	4dd\	.	4ff\	.
.	.	.	.	.	.	.	16b-\	.	16bb-X\	.	.	.	.	.	.	.	.	.	.	.	.	.	.	.	.	.	.	.	.	.	.	.
8G\	.	.	8G\	.	8Bn'\	.	16bn\	.	16bbn\	.	.	.	.	.	.	.	.	.	.	.	.	.	.	.	8r	.	8r	.	.	.	.	.
.	.	.	.	.	.	.	16b\JJ	.	16bbn\	.	.	.	.	.	.	.	.	.	.	.	.	.	.	.	.	.	.	.	.	.	.	.
*	*	*	*	*	*	*	*tremolo	*	*	*	*	*	*	*	*	*	*	*	*	*	*	*	*	*	*	*	*	*	*	*	*	*
8G\	.	.	8G\	.	8c'\	.	16cc\LL	.	16ccc\	.	.	.	.	.	.	.	.	.	.	.	.	.	.	.	8g/	.	8dd\	.	4dd\	.	4ff\	.
.	.	.	.	.	.	.	16cc\	.	16ccc\	.	.	.	.	.	.	.	.	.	.	.	.	.	.	.	.	.	.	.	.	.	.	.
8G\	.	.	8G\	.	8c#X'\	.	16cc#X\	.	16ccc#X\	.	8G\	-cu-	.	8g\	-cu-	.	8dd\	-cu-	.	8ff\	-cu-	.	.	.	8r	.	8r	.	.	.	.	.
.	.	.	.	.	.	.	16cc#X\	.	16ccc#X\	.	.	.	.	.	.	.	.	.	.	.	.	.	.	.	.	.	.	.	.	.	.	.
8G\	.	.	8G\	.	8d'\	.	16dd\	.	16ddd\	.	4G\	-la	.	4g\	-la	.	4dd\	-la	.	4ff\	-la	.	.	.	8g/	.	8dd\	.	4dd\	.	4ff\	.
.	.	.	.	.	.	.	16dd\	.	16ddd\	.	.	.	.	.	.	.	.	.	.	.	.	.	.	.	.	.	.	.	.	.	.	.
8G\J	.	.	8G\J	.	8d#X'\J	.	16dd#X\	.	16ddd#X\	.	.	.	.	.	.	.	.	.	.	.	.	.	.	.	8r	.	8r	.	.	.	.	.
.	.	.	.	.	.	.	16dd#X\JJ	.	16ddd#X\JJ	.	.	.	.	.	.	.	.	.	.	.	.	.	.	.	.	.	.	.	.	.	.	.
!	!	!	!LO:LB:g=original	!	!	!	!	!	!LO:LB:g=original	!	!	!	!	!	!	!	!	!	!	!	!	!	!	!	!	!	!	!	!	!	!LO:LB:g=original	!
=49	=49	=49	=49	=49	=49	=49	=49	=49	=49	=49	=49	=49	=49	=49	=49	=49	=49	=49	=49	=49	=49	=49	=49	=49	=49	=49	=49	=49	=49	=49	=49	=49
!	!	!	!LO:TX:t=P:problem=mixed beam	!	!	!	!	!	!LO:TX:t=P:problem=1 półnuta	!	!	!	!	!	!	!LO:DY:a	!	!	!	!	!	!	!	!	!	!	!	!	!	!	!	!
!	!	!	!	!	!	!	!	!	!	!	!	!	!	!	!	!	!	!	!	!	!	!LO:DY:b	!	!	!	!	!	!	!	!	!	!
!	!	!	!	!	!	!	!	!	!	!	!	!	!	!	!	!	!	!	!LO:DY:b	!	!	!	!	!	!	!	!	!	!	!	!	!
!	!	!	!	!	!	!	!	!	!	!	!	!	!LO:DY:b	!	!	!	!	!	!	!	!	!	!	!	!	!	!	!	!	!	!	!
!	!	!	!	!	!	!	!	!	!	!LO:DY:b	!	!	!	!	!	!	!	!	!	!	!	!	!	!	!	!	!	!	!	!	!	!
!	!	!	!	!	!	!	!	!LO:DY:b	!	!	!	!	!	!	!	!	!	!	!	!	!	!	!	!	!	!	!	!	!	!	!	!
!	!	!	!	!LO:DY:t=ffor	!	!LO:DY:b	!	!	!	!	!	!	!	!	!	!	!	!	!	!	!	!	!	!	!	!	!	!	!	!	!	!
!	!	!LO:DY:b:t=ffortiſsim.	!	!LO:DY:b	!	!	!	!	!	!	!	!	!	!	!	!	!	!	!	!	!	!	!	!	!	!	!	!	!	!	!	!
!	!	!	!	!	!	!	!	!	!	!	!	!	!	!	!	!	!	!	!	!	!	!	!	!LO:DY:t=ffor	!	!LO:DY:t=ffor	!	!	!	!	!	!
8C'\L	.	ff	8C/L	ff	16e\LL	ff	16ee\LL	ff	16eee\LL	ff	(4C\	sae-	ff	2e\	sae-	ff	2cc\	sae-	ff	2ee\	sae-	ff	8C/L	ff	8e/L	ff	8cc\L	ff	2cc\	.	2ee\	.
.	.	.	.	.	16g\	.	16ccc\	.	16eee\	.	.	.	.	.	.	.	.	.	.	.	.	.	.	.	.	.	.	.	.	.	.	.
16D'\L	.	.	8C/	.	16g\	.	16ccc\	.	16eee\	.	.	.	.	.	.	.	.	.	.	.	.	.	16C/L	.	16e/L	.	16cc\L	.	.	.	.	.
16E'\JJ	.	.	.	.	16g\JJ	.	16ccc\JJ	.	16eee\	.	.	.	.	.	.	.	.	.	.	.	.	.	16C/JJ	.	16e/JJ	.	16cc\JJ	.	.	.	.	.
16F'\LL	.	.	8E/	.	16g\LL	.	16ccc\LL	.	16eee\	.	4E\)	.	.	.	.	.	.	.	.	.	.	.	4C/	.	4e/	.	4cc\	.	.	.	.	.
16G'\	.	.	.	.	16g\	.	16ccc\	.	16eee\	.	.	.	.	.	.	.	.	.	.	.	.	.	.	.	.	.	.	.	.	.	.	.
16A'\	.	.	8G\	.	16g\	.	16ccc\	.	16eee\	.	.	.	.	.	.	.	.	.	.	.	.	.	.	.	.	.	.	.	.	.	.	.
16B'\JJ	.	.	.	.	16g\	.	16ccc\	.	16eee\	.	.	.	.	.	.	.	.	.	.	.	.	.	.	.	.	.	.	.	.	.	.	.
!LO:LB:g=original	!	!	!	!	!	!	!	!	!	!	!	!	!	!	!	!	!	!	!	!	!	!	!	!	!	!	!	!	!	!	!	!
8c\L	.	.	8c\	.	16g\	.	16ccc\	.	16eee\	.	4G\	-cu-	.	4e\	-cu-	.	4cc\	-cu-	.	4ee\	-cu-	.	4r	.	4r	.	4r	.	4cc\	.	4ee\	.
.	.	.	.	.	16g\	.	16ccc\	.	16eee\	.	.	.	.	.	.	.	.	.	.	.	.	.	.	.	.	.	.	.	.	.	.	.
8B\J	.	.	8B\J	.	16g\	.	16ccc\	.	16eee\	.	.	.	.	.	.	.	.	.	.	.	.	.	.	.	.	.	.	.	.	.	.	.
.	.	.	.	.	16g\JJ	.	16ccc\JJ	.	16eee\JJ	.	.	.	.	.	.	.	.	.	.	.	.	.	.	.	.	.	.	.	.	.	.	.
=50	=50	=50	=50	=50	=50	=50	=50	=50	=50	=50	=50	=50	=50	=50	=50	=50	=50	=50	=50	=50	=50	=50	=50	=50	=50	=50	=50	=50	=50	=50	=50	=50
!	!	!	!	!	!	!	!	!	!	!	!	!	!	!	!	!	!	!	!	!	!	!	!	!	!	!	!	!	!	!	!	!
*	*	*	*	*	*	*	*	*	*rep	*	*	*	*	*	*	*	*	*	*	*	*	*	*	*	*	*	*rep	*	*	*	*	*
16A\LL	.	.	8A\L	.	16a\LL	.	16ccc\LL	.	16eee\LL	.	(4A\	-lo-	.	2c\	-lo-	.	2a\	-lo-	.	2ee\	-lo-	.	8C/L	.	8c/L	.	8cc\L	ffyy	2ee\	.	2aa\	.
16AA/	.	.	.	.	16a\	.	16ccc\	.	16eee\	.	.	.	.	.	.	.	.	.	.	.	.	.	.	.	.	.	.	.	.	.	.	.
16BB/	.	.	8AA\	.	16a\	.	16ccc\	.	16eee\	.	.	.	.	.	.	.	.	.	.	.	.	.	16C/L	.	16c/L	.	16cc\L	.	.	.	.	.
16C/JJ	.	.	.	.	16a\	.	16ccc\	.	16eee\	.	.	.	.	.	.	.	.	.	.	.	.	.	16C/JJ	.	16c/JJ	.	16cc\JJ	.	.	.	.	.
16D\LL	.	.	8C\	.	16a\	.	16ccc\	.	16eee\	.	4c\)	.	.	.	.	.	.	.	.	.	.	.	4C/	.	4c/	.	4cc\	.	.	.	.	.
16E\	.	.	.	.	16a\	.	16ccc\	.	16eee\	.	.	.	.	.	.	.	.	.	.	.	.	.	.	.	.	.	.	.	.	.	.	.
16F\	.	.	8E\	.	16a\	.	16ccc\	.	16eee\	.	.	.	.	.	.	.	.	.	.	.	.	.	.	.	.	.	.	.	.	.	.	.
16G\JJ	.	.	.	.	16a\	.	16ccc\JJ	.	16eee\	.	.	.	.	.	.	.	.	.	.	.	.	.	.	.	.	.	.	.	.	.	.	.
8A\L	.	.	8A\	.	16a\	.	16ccc\LL	.	16eee\	.	4A\	-rum	.	4c\	-rum	.	4a\	-rum	.	4ee\	-rum	.	4r	.	4r	.	4r	.	4ee\	.	4aa\	.
.	.	.	.	.	16a\	.	16ccc\	.	16eee\	.	.	.	.	.	.	.	.	.	.	.	.	.	.	.	.	.	.	.	.	.	.	.
8G\J	.	.	8G\J	.	16a\	.	16ccc\	.	16eee\	.	.	.	.	.	.	.	.	.	.	.	.	.	.	.	.	.	.	.	.	.	.	.
.	.	.	.	.	16a\JJ	.	16ccc\JJ	.	16eee\JJ	.	.	.	.	.	.	.	.	.	.	.	.	.	.	.	.	.	.	.	.	.	.	.
!	!	!	!	!	!	!	!	!	!	!	!LO:LB:g=original	!	!	!	!	!	!	!	!	!	!	!	!	!	!	!	!	!	!	!	!	!
*	*	*	*	*	*	*	*	*	*rep	*	*	*	*	*	*	*	*	*	*	*	*	*	*	*	*	*	*Xrep	*	*	*	*	*
!	!	!	!	!	!	!	!	!	!	!	!	!	!	!	!	!	!	!	!	!	!	!	!	!	!LO:LB:g=original	!	!	!	!	!	!	!
=51	=51	=51	=51	=51	=51	=51	=51	=51	=51	=51	=51	=51	=51	=51	=51	=51	=51	=51	=51	=51	=51	=51	=51	=51	=51	=51	=51	=51	=51	=51	=51	=51
!	!	!	!	!	!	!	!	!	!	!	!	!	!	!	!	!	!	!	!	!	!	!	!LO:TX:a:t=1	!	!	!	!	!	!	!	!	!
16F\LL	.	.	8F\L	.	16f\LL	.	16aa\LL	.	16ff\ 16dddLL	.	(4F\	A-	.	2f\	A-	.	2f\	A-	.	2dd\	A-	.	2.r	.	2.r	.	8dd\L	.	4ff\	.	4aa\	.
16D\	.	.	.	.	16f\	.	16aa\	.	16ff\ 16ddd	.	.	.	.	.	.	.	.	.	.	.	.	.	.	.	.	.	.	.	.	.	.	.
16E\	.	.	8D\	.	16f\	.	16aa\	.	16ff\ 16ddd	.	.	.	.	.	.	.	.	.	.	.	.	.	.	.	.	.	16dd\L	.	.	.	.	.
16F\JJ	.	.	.	.	16f\	.	16aa\	.	16ff\ 16ddd	.	.	.	.	.	.	.	.	.	.	.	.	.	.	.	.	.	16dd\JJ	.	.	.	.	.
16G\LL	.	.	8F\	.	16f\	.	16aa\	.	16ff\ 16ddd	.	4D\)	.	.	.	.	.	.	.	.	.	.	.	.	.	.	.	4dd\	.	4ff\	.	4aa\	.
16A\	.	.	.	.	16f\	.	16aa\	.	16ff\ 16ddd	.	.	.	.	.	.	.	.	.	.	.	.	.	.	.	.	.	.	.	.	.	.	.
16B\	.	.	8A\	.	16f\	.	16aa\	.	16ff\ 16ddd	.	.	.	.	.	.	.	.	.	.	.	.	.	.	.	.	.	.	.	.	.	.	.
16c\JJ	.	.	.	.	16f\	.	16aa\JJ	.	16ff\ 16ddd	.	.	.	.	.	.	.	.	.	.	.	.	.	.	.	.	.	.	.	.	.	.	.
!	!	!	!	!	!	!	!	!	!	!	!	!	!	!	!	!	!	!	!	!LO:SIC:s=-men	!	!	!	!	!	!	!	!	!	!	!	!
8d'\L	.	.	8d\	.	16f\	.	16aa\LL	.	16ff\ 16ddd	.	4F\	-men	.	4f\	-men	.	4f\	-men	.	4dd\	-m	.	.	.	.	.	4r	.	4ff\	.	4aa\	.
.	.	.	.	.	16f\	.	16aa\	.	16ff\ 16ddd	.	.	.	.	.	.	.	.	.	.	.	.	.	.	.	.	.	.	.	.	.	.	.
8c'\J	.	.	8c\J	.	16f\	.	16aa\	.	16ff\ 16ddd	.	.	.	.	.	.	.	.	.	.	.	.	.	.	.	.	.	.	.	.	.	.	.
.	.	.	.	.	16f\JJ	.	16aa\JJ	.	16ff\ 16dddJJ	.	.	.	.	.	.	.	.	.	.	.	.	.	.	.	.	.	.	.	.	.	.	.
!	!	!	!	!	!	!	!	!	!	!	!	!	!	!	!	!	!	!	!	!	!	!	!	!	!	!	!LO:LB:g=original	!	!	!	!	!
=52	=52	=52	=52	=52	=52	=52	=52	=52	=52	=52	=52	=52	=52	=52	=52	=52	=52	=52	=52	=52	=52	=52	=52	=52	=52	=52	=52	=52	=52	=52	=52	=52
8B'\L	.	.	8B\L	.	16g\LL	.	16ee\LL	.	16ccc\LL	.	2G\	A-	.	2e\	A-	.	2.g\	A-	.	2cc\	A-	.	8C/L	.	8e/L	.	8cc\L	.	2ee\	.	2gg\	.
.	.	.	.	.	16g\	.	16ee\	.	16ccc\	.	.	.	.	.	.	.	.	.	.	.	.	.	.	.	.	.	.	.	.	.	.	.
8A'\	.	.	8A\	.	16g\	.	16ee\	.	16ccc\	.	.	.	.	.	.	.	.	.	.	.	.	.	16C/L	.	16e/L	.	16cc\L	.	.	.	.	.
.	.	.	.	.	16g\	.	16ee\	.	16ccc\	.	.	.	.	.	.	.	.	.	.	.	.	.	16C/JJ	.	16e/JJ	.	16cc\JJ	.	.	.	.	.
*	*	*	*	*	*	*	*	*	*	*	*	*	*	*	*	*	*	*	*	*	*	*	*	*	*Xtremolo	*	*Xtremolo	*	*	*	*	*
8G'\	.	.	8G\	.	16g\	.	16ee\	.	16ccc\	.	.	.	.	.	.	.	.	.	.	.	.	.	8C/L	.	8e/L	.	8cc\L	.	.	.	.	.
.	.	.	.	.	16g\	.	16ee\	.	16ccc\	.	.	.	.	.	.	.	.	.	.	.	.	.	.	.	.	.	.	.	.	.	.	.
8F'\	.	.	8F\	.	16g\	.	16ee\	.	16ccc\	.	.	.	.	.	.	.	.	.	.	.	.	.	8C/	.	8e/	.	8cc\	.	.	.	.	.
.	.	.	.	.	16g\	.	16ee\JJ	.	16ccc\JJ	.	.	.	.	.	.	.	.	.	.	.	.	.	.	.	.	.	.	.	.	.	.	.
8E'\	.	.	8E\	.	16g\	.	16dd\LL	.	16bb\LL	.	4GG/	.	.	4d\	.	.	.	.	.	4b\	.	.	8GG/	.	8g/	.	8dd\	.	4dd\	.	4ff\	.
.	.	.	.	.	16g\	.	16dd\	.	16bb\	.	.	.	.	.	.	.	.	.	.	.	.	.	.	.	.	.	.	.	.	.	.	.
8D'\J	.	.	8D\J	.	16g\	.	16dd\	.	16bb\	.	.	.	.	.	.	.	.	.	.	.	.	.	8GG/J	.	8g/J	.	8dd\J	.	.	.	.	.
.	.	.	.	.	16g\JJ	.	16dd\JJ	.	16bb\JJ	.	.	.	.	.	.	.	.	.	.	.	.	.	.	.	.	.	.	.	.	.	.	.
!	!	!	!LO:LB:g=original	!	!LO:LB:g=original	!	!	!	!	!	!	!	!	!	!	!	!LO:LB:g=original	!	!	!	!	!	!	!	!	!	!	!	!	!	!	!
!LO:LB:g=original	!	!	!	!	!	!	!	!	!	!	!	!	!	!	!	!	!	!	!	!	!	!	!LO:LB:g=original	!	!	!	!	!	!	!	!	!
=53	=53	=53	=53	=53	=53	=53	=53	=53	=53	=53	=53	=53	=53	=53	=53	=53	=53	=53	=53	=53	=53	=53	=53	=53	=53	=53	=53	=53	=53	=53	=53	=53
8C\L	.	.	8C\L	.	16g\LL	.	16ee\LL	.	16ccc\LL	.	4C\	-men	.	4e\	-men	.	4g\	-men	.	4cc\	-men	.	8C/L	.	8e/L	.	8cc\L	.	2cc\	.	2ee\	.
.	.	.	.	.	16g\	.	16ee\	.	16ccc\	.	.	.	.	.	.	.	.	.	.	.	.	.	.	.	.	.	.	.	.	.	.	.
16D\L	.	.	8C\	.	16g\	.	16ee\	.	16ccc\	.	.	.	.	.	.	.	.	.	.	.	.	.	16C/L	.	16e/L	.	16cc\L	.	.	.	.	.
16E\JJ	.	.	.	.	16g\	.	16ee\	.	16ccc\	.	.	.	.	.	.	.	.	.	.	.	.	.	16C/JJ	.	16e/JJ	.	16cc\JJ	.	.	.	.	.
16F\LL	.	.	8E\	.	16g\	.	16ee\	.	16ccc\	.	4E\	E-	.	4c\	E-	.	4g\	E-	.	4ee\	E-	.	4C/	.	4e/	.	4cc\	.	.	.	.	.
16G\	.	.	.	.	16g\	.	16ee\	.	16ccc\	.	.	.	.	.	.	.	.	.	.	.	.	.	.	.	.	.	.	.	.	.	.	.
16A\	.	.	8G\	.	16g\	.	16ee\	.	16ccc\	.	.	.	.	.	.	.	.	.	.	.	.	.	.	.	.	.	.	.	.	.	.	.
16B\JJ	.	.	.	.	16g\	.	16ee\	.	16ccc\	.	.	.	.	.	.	.	.	.	.	.	.	.	.	.	.	.	.	.	.	.	.	.
8c\L	.	.	8c\	.	16g\	.	16ee\	.	16ccc\	.	8G\	-gre-	.	8c\	-gre-	.	8g\	-gre-	.	8ee\	-gre-	.	4r	.	4r	.	4r	.	4cc\	.	4ee\	.
.	.	.	.	.	16g\	.	16ee\	.	16ccc\	.	.	.	.	.	.	.	.	.	.	.	.	.	.	.	.	.	.	.	.	.	.	.
8B\J	.	.	8B\J	.	16g\	.	16ee\	.	16ccc\	.	8G\	-di-	.	8c\	-di-	.	8g\	-di-	.	8ee\	-di-	.	.	.	.	.	.	.	.	.	.	.
.	.	.	.	.	16g\JJ	.	16ee\JJ	.	16ccc\JJ	.	.	.	.	.	.	.	.	.	.	.	.	.	.	.	.	.	.	.	.	.	.	.
!	!	!	!	!	!	!	!	!	!	!	!	!	!	!LO:LB:g=original	!	!	!	!	!	!LO:LB:g=original	!	!	!	!	!	!	!	!	!	!	!	!
=54	=54	=54	=54	=54	=54	=54	=54	=54	=54	=54	=54	=54	=54	=54	=54	=54	=54	=54	=54	=54	=54	=54	=54	=54	=54	=54	=54	=54	=54	=54	=54	=54
!	!	!	!	!	!	!	!	!	!	!	!	!	!	!	!	!	!	!	!	!	!	!	!	!	!	!	!	!	!	!	!	!
*	*	*	*	*	*	*	*	*	*	*	*	*	*	*	*	*	*	*	*	*	*	*	*	*	*	*	*rep	*	*	*	*	*
16A\LL	.	.	8A\L	.	16a\LL	.	16aa\LL	.	16ee\ 16cccLL	.	4A\	-en-	.	4c\	-en-	.	4a\	-e-	.	4ee\	-en-	.	8C/L	.	8c/L	.	8cc\L	.	2ee\	.	2aa\	.
16AA/	.	.	.	.	16a\	.	16aa\	.	16ee\ 16ccc	.	.	.	.	.	.	.	.	.	.	.	.	.	.	.	.	.	.	.	.	.	.	.
16BB/	.	.	8AA\	.	16a\	.	16aa\	.	16ee\ 16ccc	.	.	.	.	.	.	.	.	.	.	.	.	.	16C/L	.	16c/L	.	16cc\L	.	.	.	.	.
16C/JJ	.	.	.	.	16a\	.	16aa\	.	16ee\ 16ccc	.	.	.	.	.	.	.	.	.	.	.	.	.	16C/JJ	.	16c/JJ	.	16cc\JJ	.	.	.	.	.
16D\LL	.	.	8C\	.	16a\	.	16aa\	.	16ee\ 16ccc	.	4A\	-tem	.	4c\	-tem	.	4a\	-ntem	.	4ee\	-tem	.	4C/	.	4c/	.	4cc\	.	.	.	.	.
16E\	.	.	.	.	16a\	.	16aa\	.	16ee\ 16ccc	.	.	.	.	.	.	.	.	.	.	.	.	.	.	.	.	.	.	.	.	.	.	.
16F\	.	.	8E\	.	16a\	.	16aa\	.	16ee\ 16ccc	.	.	.	.	.	.	.	.	.	.	.	.	.	.	.	.	.	.	.	.	.	.	.
16G\JJ	.	.	.	.	16a\	.	16aa\	.	16ee\ 16ccc	.	.	.	.	.	.	.	.	.	.	.	.	.	.	.	.	.	.	.	.	.	.	.
8A\L	.	.	8A\	.	16a\	.	16aa\	.	16ee\ 16ccc	.	4A\	de	.	4c\	de	.	4a\	de	.	4ee\	de	.	4r	.	4r	.	4r	.	4ee\	.	4aa\	.
.	.	.	.	.	16a\	.	16aa\	.	16ee\ 16ccc	.	.	.	.	.	.	.	.	.	.	.	.	.	.	.	.	.	.	.	.	.	.	.
8G\J	.	.	8G\J	.	16a\	.	16aa\	.	16ee\ 16ccc	.	.	.	.	.	.	.	.	.	.	.	.	.	.	.	.	.	.	.	.	.	.	.
.	.	.	.	.	16a\JJ	.	16aa\JJ	.	16ee\ 16cccJJ	.	.	.	.	.	.	.	.	.	.	.	.	.	.	.	.	.	.	.	.	.	.	.
!	!	!	!	!	!	!	!LO:LB:g=original	!	!	!	!	!	!	!	!	!	!	!	!	!	!	!	!	!	!	!	!	!	!	!	!	!
*	*	*	*	*	*	*	*	*	*	*	*	*	*	*	*	*	*	*	*	*	*	*	*	*	*	*	*Xrep	*	*	*	*	*
=55	=55	=55	=55	=55	=55	=55	=55	=55	=55	=55	=55	=55	=55	=55	=55	=55	=55	=55	=55	=55	=55	=55	=55	=55	=55	=55	=55	=55	=55	=55	=55	=55
!LO:TX:t=P:problem=mixed beam	!	!	!	!	!	!	!	!	!	!	!	!	!	!	!	!	!	!	!	!	!	!	!	!	!	!	!	!	!	!	!	!
!	!	!	!	!	!	!	!	!	!	!	!	!	!	!	!	!	!	!	!	!	!	!	!	!	!	!	!	!	!	!LO:DY:a:	!	!
16F\LL	.	.	8F\L	.	16a\LL	.	2.ff\	.	16ddd\LL	.	8F\	tem-	.	8d\	tem-	.	8a\	tem-	.	8ff\	Tem-	.	2.r	.	2.r	.	8dd\L	.	2ff\	f	2aa\	.
16FF/	.	.	.	.	16a\	.	.	.	16ddd\	.	.	.	.	.	.	.	.	.	.	.	.	.	.	.	.	.	.	.	.	.	.	.
16GG/	.	.	8E\	.	16a\	.	.	.	16ddd\	.	8E\	-plo	.	8d\	-plo	.	8a\	-plo	.	8ff\	-plo	.	.	.	.	.	16dd\L	.	.	.	.	.
16AA/JJ	.	.	.	.	16a\	.	.	.	16ddd\	.	.	.	.	.	.	.	.	.	.	.	.	.	.	.	.	.	16dd\JJ	.	.	.	.	.
16BB/LL	.	.	8D\	.	16a\	.	.	.	16ddd\	.	8D\	a	.	8d\	a	.	8a\	a	.	8ff\	a	.	.	.	.	.	4dd\	.	.	.	.	.
16C/	.	.	.	.	16a\	.	.	.	16ddd\	.	.	.	.	.	.	.	.	.	.	.	.	.	.	.	.	.	.	.	.	.	.	.
16D/	.	.	8E\	.	16a\	.	.	.	16ddd\	.	8E\	la-	.	8d\	la-	.	8a\	la-	.	8ff\	la-	.	.	.	.	.	.	.	.	.	.	.
16E/JJ	.	.	.	.	16a\	.	.	.	16ddd\	.	.	.	.	.	.	.	.	.	.	.	.	.	.	.	.	.	.	.	.	.	.	.
8F\L	.	.	8F\	.	16a\	.	.	.	16ddd\	.	8F\	-te-	.	8d\	-te-	.	8a\	-te-	.	8ff\	-te-	.	.	.	.	.	4r	.	4ff\	.	4aa\	.
.	.	.	.	.	16a\	.	.	.	16ddd\	.	.	.	.	.	.	.	.	.	.	.	.	.	.	.	.	.	.	.	.	.	.	.
8F#X\J	.	.	8F#X\J	.	16a\	.	.	.	16ddd\	.	8F#X\	-re	.	8d\	-re	.	8a\	-re	.	8ff\	-re	.	.	.	.	.	.	.	.	.	.	.
.	.	.	.	.	16a\JJ	.	.	.	16ddd\JJ	.	.	.	.	.	.	.	.	.	.	.	.	.	.	.	.	.	.	.	.	.	.	.
!	!	!	!	!	!	!	!	!	!	!	!LO:LB:g=original	!	!	!	!	!	!	!	!	!	!	!	!	!	!	!	!	!	!	!	!	!
=56	=56	=56	=56	=56	=56	=56	=56	=56	=56	=56	=56	=56	=56	=56	=56	=56	=56	=56	=56	=56	=56	=56	=56	=56	=56	=56	=56	=56	=56	=56	=56||:	=56
8G\L	6 4	.	8G\L	.	16g\LL	.	2ee\	.	16ccc\LL	.	(2G\	dex-	.	(2c\	dex-	.	2.g\	dex-	.	(2ee\	dex-	.	4C/	.	4e/	.	4cc\	.	2ee\	.	2gg\	.
.	.	.	.	.	16g\	.	.	.	16ccc\	.	.	.	.	.	.	.	.	.	.	.	.	.	.	.	.	.	.	.	.	.	.	.
8G\	.	.	8G\	.	16g\	.	.	.	16ccc\	.	.	.	.	.	.	.	.	.	.	.	.	.	.	.	.	.	.	.	.	.	.	.
.	.	.	.	.	16g\	.	.	.	16ccc\	.	.	.	.	.	.	.	.	.	.	.	.	.	.	.	.	.	.	.	.	.	.	.
8G\	.	.	8G\	.	16g\	.	.	.	16ccc\	.	.	.	.	.	.	.	.	.	.	.	.	.	8r	.	8r	.	8r	.	.	.	.	.
.	.	.	.	.	16g\	.	.	.	16ccc\	.	.	.	.	.	.	.	.	.	.	.	.	.	.	.	.	.	.	.	.	.	.	.
8G\J	.	.	8G\J	.	16g\	.	.	.	16ccc\	.	.	.	.	.	.	.	.	.	.	.	.	.	8C/L	.	8e/L	.	8cc\L	.	.	.	.	.
.	.	.	.	.	16g\	.	.	.	16ccc\JJ	.	.	.	.	.	.	.	.	.	.	.	.	.	.	.	.	.	.	.	.	.	.	.
*Xtremolo	*	*	*Xtremolo	*	*	*	*	*	*	*	*	*	*	*	*	*	*	*	*	*	*	*	*	*	*	*	*	*	*	*	*	*
8GG/L	5 3	.	8GG/L	.	16g\	.	4dd\	.	16bb\LL	.	4GG/)	.	.	4B\)	.	.	.	.	.	4dd\)	.	.	8GG/	.	8g/	.	8dd\	.	4dd\	.	4ff\	.
.	.	.	.	.	16g\	.	.	.	16bb\	.	.	.	.	.	.	.	.	.	.	.	.	.	.	.	.	.	.	.	.	.	.	.
8GG/J	.	.	8GG/J	.	16g\	.	.	.	16bb\	.	.	.	.	.	.	.	.	.	.	.	.	.	8GG/J	.	8g/J	.	8dd\J	.	.	.	.	.
.	.	.	.	.	16g\JJ	.	.	.	16bb\JJ	.	.	.	.	.	.	.	.	.	.	.	.	.	.	.	.	.	.	.	.	.	.	.
!LO:LB:g=original	!	!	!	!	!	!	!	!	!	!	!	!	!	!	!	!	!LO:LB:g=original	!	!	!	!	!	!	!	!	!	!	!	!	!	!	!
=57	=57	=57	=57	=57	=57	=57	=57	=57	=57	=57	=57	=57	=57	=57	=57	=57	=57	=57	=57	=57	=57	=57	=57	=57	=57	=57	=57	=57	=57||:	=57	=57	=57
4C\	.	.	4C/	.	4g\	.	4ee\	.	4ccc\	.	4C/	-tro	.	4c\	-tro	.	4g\	-tro	.	4ee\	-tro	.	4C/	.	4e/	.	4cc\	.	4cc/	.	4ee\	.
4r	.	.	4r	.	4r	.	4r	.	4r	.	4C/	Al-	.	4c\	Al-	.	4c\	Al-	.	4cc\	al-	.	4r	.	4c/	.	4c/	.	4c/	.	4cc\	.
4r	.	.	4r	.	4r	.	4r	.	4r	.	4E\	-le-	.	4e\	-le-	.	4e\	-le-	.	4ee\	-le-	.	4r	.	4e/	.	4e/	.	4e/	.	4ee\	.
!	!	!	!LO:LB:g=original	!	!	!	!	!	!	!	!	!	!	!	!	!	!	!	!	!	!	!	!	!	!	!	!	!	!	!	!LO:LB:g=original	!
!	!	!	!	!	!	!	!	!	!	!	!	!	!	!	!	!	!	!	!	!	!	!	!	!	!LO:LB:g=original	!	!LO:LB:g=original	!	!	!	!	!
=58	=58	=58	=58	=58	=58	=58	=58	=58	=58	=58	=58	=58	=58	=58	=58	=58	=58	=58	=58	=58	=58	=58	=58	=58	=58	=58	=58	=58	=58	=58	=58:||	=58
!	!	!	!	!	!	!	!	!	!	!	!	!	!	!	!	!	!	!	!	!	!	!	!	!	!	!	!	!	!	!	!LO:TX:t=P:problem=takty 58-59 zapisane repetycją	!
8G\L	.	.	8G\L	.	8G/L	.	8g/L 8ff	.	8dd\L 8bb	.	2.G^\	-lu-	.	2.g\	-lu-	.	4g\	-lu-	.	2.gg\	-lu-	.	8GG/L	.	8G/L	.	8g/L	.	2.g^/	.	2gg\yy	.
16G\L	.	.	16G\L	.	16G/L	.	16g/L 16ff	.	16dd\L 16bb	.	.	.	.	.	.	.	.	.	.	.	.	.	16GG/L	.	16G/L	.	16g/L	.	.	.	.	.
16G\JJ	.	.	16G\JJ	.	16G/JJ	.	16g/JJ 16ff	.	16dd\JJ 16bb	.	.	.	.	.	.	.	.	.	.	.	.	.	16GG/JJ	.	16G/JJ	.	16g/JJ	.	.	.	.	.
!	!	!	!	!	!	!	!	!	!	!	!	!	!	!	!	!	!	!	!	!	!	!	!	!	!	!	!	!	!	!	!	!
*tremolo	*	*	*tremolo	*	*	*	*	*	*	*	*	*	*	*	*	*	*	*	*	*	*	*	*	*	*tremolo	*	*tremolo	*	*	*	*	*
8G\L	.	.	8G\L	.	8G/L	.	8g/ 8ffL	.	8dd\ 8bbL	.	.	.	.	.	.	.	2b\	.	.	.	.	.	8GG/L	.	8G/L	.	8g'/L	.	.	.	.	.
8G\	.	.	8G\	.	8G/	.	8g/ 8ff	.	8dd\ 8bb	.	.	.	.	.	.	.	.	.	.	.	.	.	8GG/	.	8G/	.	8g'/	.	.	.	.	.
8G\	.	.	8G\	.	8G/	.	8g/ 8ff	.	8dd\ 8bb	.	.	.	.	.	.	.	.	.	.	.	.	.	8GG/	.	8G/	.	8g'/	.	.	.	4ff\yy	.
8G\J	.	.	8G\J	.	8G/J	.	8g/ 8ffJ	.	8dd\ 8bbJ	.	.	.	.	.	.	.	.	.	.	.	.	.	8GG/J	.	8G/J	.	8g'/J	.	.	.	.	.
!	!	!	!	!	!	!	!	!	!LO:LB:g=original	!	!	!	!	!	!	!	!	!	!	!	!	!	!	!	!	!	!	!	!	!	!	!
!	!	!	!	!	!	!	!	!	!	!	!	!	!	!	!	!	!	!	!	!	!	!	!LO:LB:g=original	!	!	!	!	!	!	!	!	!
=59	=59	=59	=59	=59	=59	=59	=59	=59	=59	=59	=59	=59	=59	=59	=59	=59	=59	=59	=59	=59	=59	=59	=59	=59	=59	=59	=59	=59	=59:||	=59	=59	=59
!	!	!	!	!	!	!	!	!	!	!	!	!	!	!	!	!	!	!	!	!	!	!	!	!	!	!	!	!	!LO:TX:t=P:problem=takty 59-60 zapisane repetycją	!	!	!
4C\	.	.	4C\	.	4c\	.	4g/ 4ee	.	4ee\ 4ccc	.	4C/	-ja	.	4e\	-ja	.	4cc\	-ja.	.	4ee\	-ja	.	4C/	.	4c/	.	4e/	.	4cc/yy	.	4ee\yy	.
4r	.	.	4r	.	4r	.	4r	.	4r	.	4C/	Al-	.	4c\	al-	.	4c\	Al-	.	4cc\	al-	.	4r	.	4c/	.	4c/	.	4c/yy	.	4cc\yy	.
4r	.	.	4r	.	4r	.	4r	.	4r	.	4E/	-le-	.	4e\	-le-	.	4e\	-le-	.	4ee\	-le-	.	4r	.	4e/	.	4e/	.	4e/yy	.	4ee\yy	.
!	!	!	!	!	!	!	!	!	!	!	!	!	!	!LO:LB:g=original	!	!	!	!	!	!LO:LB:g=original	!	!	!	!	!	!	!	!	!	!	!	!
=60	=60	=60	=60	=60	=60	=60	=60	=60	=60	=60	=60	=60	=60	=60	=60	=60	=60	=60	=60	=60	=60	=60	=60	=60	=60	=60	=60	=60	=60	=60	=60	=60
8G\L	.	.	8G\L	.	8G/L	.	8g/L 8ff	.	8dd\L 8bb	.	2.G\	-lu-	.	2.g\	-lu-	.	2.g\	-lu-	.	2.gg\	-lu-	.	8GG/L	.	8G/L	.	8g/L	.	2.g^/yy	.	2.gg\	.
16G\L	.	.	16G\L	.	16G/L	.	16g/L 16ff	.	16dd\L 16bb	.	.	.	.	.	.	.	.	.	.	.	.	.	16GG/L	.	16G/L	.	16g/L	.	.	.	.	.
16G\JJ	.	.	16G\JJ	.	16G/JJ	.	16g/JJ 16ff	.	16dd\JJ 16bb	.	.	.	.	.	.	.	.	.	.	.	.	.	16GG/JJ	.	16G/JJ	.	16g/JJ	.	.	.	.	.
!	!	!	!	!	!	!	!	!	!	!	!	!	!	!	!	!	!	!	!	!	!	!	!	!	!	!	!	!	!	!	!	!
8G'\L	.	.	8G\L	.	8G/L	.	8g/ 8ffL	.	8dd\ 8bbL	.	.	.	.	.	.	.	.	.	.	.	.	.	8GG/L	.	8G/L	.	8g/L	.	.	.	.	.
8G'\	.	.	8G\	.	8G/	.	8g/ 8ff	.	8dd\ 8bb	.	.	.	.	.	.	.	.	.	.	.	.	.	8GG/	.	8G/	.	8g/	.	.	.	.	.
8G'\	.	.	8G\	.	8G/	.	8g/ 8ff	.	8dd\ 8bb	.	.	.	.	.	.	.	.	.	.	.	.	.	8GG/	.	8G/	.	8g/	.	.	.	.	.
8G'\J	.	.	8G\J	.	8G/J	.	8g/ 8ffJ	.	8dd\ 8bbJ	.	.	.	.	.	.	.	.	.	.	.	.	.	8GG/J	.	8G/J	.	8g/J	.	.	.	.	.
*	*	*	*	*	*	*	*	*	*	*	*	*	*	*	*	*	*	*	*	*	*	*	*	*	*	*	*Xtremolo	*	*	*	*	*
*	*	*	*	*	*	*	*	*	*	*	*	*	*	*	*	*	*	*	*	*	*	*	*	*	*Xtremolo	*	*	*	*	*	*	*
*	*	*	*	*	*	*	*	*	*Xtremolo	*	*	*	*	*	*	*	*	*	*	*	*	*	*	*	*	*	*	*	*	*	*	*
*	*	*	*	*	*	*	*Xtremolo	*	*	*	*	*	*	*	*	*	*	*	*	*	*	*	*	*	*	*	*	*	*	*	*	*
*	*	*	*	*	*Xtremolo	*	*	*	*	*	*	*	*	*	*	*	*	*	*	*	*	*	*	*	*	*	*	*	*	*	*	*
*	*	*	*Xtremolo	*	*	*	*	*	*	*	*	*	*	*	*	*	*	*	*	*	*	*	*	*	*	*	*	*	*	*	*	*
*Xtremolo	*	*	*	*	*	*	*	*	*	*	*	*	*	*	*	*	*	*	*	*	*	*	*	*	*	*	*	*	*	*	*	*
=61	=61	=61	=61	=61	=61	=61	=61	=61	=61	=61	=61	=61	=61	=61	=61	=61	=61	=61	=61	=61	=61	=61	=61	=61	=61	=61	=61	=61	=61	=61	=61	=61
4C/	.	.	4C/	.	4c\	.	4g/ 4ee	.	4ee\ 4ccc	.	4C/	-ja	.	4e\	-ja	.	4g\	-ja	.	4ee\	-ja	.	4C/	.	4c/	.	4e/	.	4cc\	.	4ee\	.
4r	.	.	4r	.	4r	.	4r	.	4r	.	4r	.	.	4r	.	.	4r	.	.	4r	.	.	4r	.	4r	.	4r	.	4r	.	4r	.
4r	.	.	4r	.	4r	.	4r	.	4r	.	4r	.	.	4r	.	.	4r	.	.	4r	.	.	4r	.	4r	.	4r	.	4r	.	4r	.
!	!	!	!	!	!LO:LB:g=original	!	!LO:LB:g=original	!	!	!	!	!	!	!	!	!	!	!	!	!	!	!	!	!	!	!	!	!	!	!	!	!
=62	=62	=62	=62	=62	=62	=62	=62	=62	=62	=62	=62	=62	=62	=62	=62	=62	=62	=62	=62	=62	=62	=62	=62	=62	=62	=62	=62	=62	=62	=62	=62	=62
!	!	!	!	!	!	!	!	!	!	!	!LO:TX:a:t=2	!	!	!	!	!	!	!	!	!	!	!	!	!	!	!	!	!	!	!	!	!
4c\	.	.	4c\	.	4c\	.	4G/ 4e	.	4e/ 4cc	.	2.r	.	.	2.r	.	.	2.r	.	.	2.r	.	.	4C/	.	4c/	.	4e/	.	4cc\	.	4ee\	.
4G\	.	.	4G\	.	4c\	.	4G/ 4e	.	4e/ 4cc	.	.	.	.	.	.	.	.	.	.	.	.	.	4C/	.	4c/	.	4e/	.	4cc\	.	4ee\	.
4E\	.	.	4E\	.	4c\	.	4G/ 4e	.	4e/ 4cc	.	.	.	.	.	.	.	.	.	.	.	.	.	4C/	.	4c/	.	4e/	.	4cc\	.	4ee\	.
=63	=63	=63	=63	=63	=63	=63	=63	=63	=63	=63	=63	=63	=63	=63	=63	=63	=63	=63	=63	=63	=63	=63	=63	=63	=63	=63	=63	=63	=63	=63	=63	=63
!	!	!	!	!	!	!	!	!	!	!	!LO:TX:b:t=Gostyń 15/10 1839\nBiałaszewski	!	!	!	!	!	!LO:TX:b:t=w Gostyniu 15/10 1839\nBiałaszewski	!	!	!LO:TX:b:t=w Gostyniu 15./10. 1839.\nBiałaszewski	!	!	!	!	!	!	!	!	!	!	!	!
4C/	.	.	4C/	.	4c\	.	4G/ 4e	.	4e/ 4cc	.	2.r	.	.	2.r	.	.	2.r	.	.	2.r	.	.	4C/	.	4c/	.	4e/	.	4cc\	.	4ee\	.
4r	.	.	4r	.	4r	.	4r	.	4r	.	.	.	.	.	.	.	.	.	.	.	.	.	4r	.	4r	.	4r	.	4r	.	4r	.
!LO:TX:b:t=Gostyń 15./10. 1839\nBiałaszewski	!	!	!LO:TX:b:t=Gostyń 15/10 1839\nBiałaszewski	!	!	!	!	!	!LO:TX:b:t=Gostyń 15./10. 1839\nBiałaszewski	!	!	!	!	!	!	!	!	!	!	!	!	!	!LO:TX:b:t=Gostyn 15./10. 1839\nBiałaszewski	!	!LO:TX:b:t=w Gostyn Białaszewski\n15/10 1839	!	!	!	!LO:TX:b:t=Gostyn 15/10 1839\nBiałaszewski	!	!	!
4r	.	.	4r	.	4r	.	4r	.	4r	.	.	.	.	.	.	.	.	.	.	.	.	.	4r	.	4r	.	4r	.	4r	.	4r	.
==	==	==	==	==	==	==	==	==	==	==	==	==	==	==	==	==	==	==	==	==	==	==	==	==	==	==	==	==	==	==	==	==
*-	*-	*-	*-	*-	*-	*-	*-	*-	*-	*-	*-	*-	*-	*-	*-	*-	*-	*-	*-	*-	*-	*-	*-	*-	*-	*-	*-	*-	*-	*-	*-	*-
!!!system-decoration: [(s1,s2)][(s3,s4)][(s5)][(s6,s7,s8,s9)][(s10,s11,s12,s13)]s14
!!!RDF**kern: > = above
!!!RDF**kern: < = below
!!!ENC: Andrzej Kubiczek
!!!END: 2020-07-22
!!!ENC: Natalia Wrzos
!!!END: 2022-02-27
